;FLAVOR:Marlin
;TIME:4817
;Filament used: 3.04167m
;Layer height: 0.2
;MINX:50.316
;MINY:53.501
;MINZ:0.2
;MAXX:184.683
;MAXY:185.641
;MAXZ:29.042
;ARCWELDERPROCESSED
; Postprocessed by [ArcWelder](https://github.com/FormerLurker/ArcWelderLib)
; Copyright(C) 2021 - Brad Hochgesang
; Version: 1.2.0, Branch: HEAD, BuildDate: 2021-11-21T20:25:43Z
; resolution=0.05mm
; path_tolerance=5.0%
; max_radius=9999.00mm
; default_xyz_precision=3
; default_e_precision=5
; extrusion_rate_variance_percent=5.0%

;Generated with Cura_SteamEngine 5.4.0
M140 S85
M105
M190 S85
M104 S260
M105
M109 S260
M82 ;absolute extrusion mode
M201 X500.00 Y500.00 Z100.00 E5000.00 ;Setup machine max acceleration
M203 X500.00 Y500.00 Z10.00 E50.00 ;Setup machine max feedrate
M204 P500.00 R1000.00 T500.00 ;Setup Print/Retract/Travel acceleration
M205 X8.00 Y8.00 Z0.40 E5.00 ;Setup Jerk
M220 S100 ;Reset Feedrate
M221 S100 ;Reset Flowrate

G28 ;Home

G92 E0 ;Reset Extruder
G1 Z2.0 F3000 ;Move Z Axis up
G1 X1.1 Y20 Z0.28 F5000.0 ;Move to start position
G1 X1.1 Y200.0 Z0.28 F1000.0 E15 ;Draw the first line
G1 X1.4 Y200.0 Z0.28 F5000.0 ;Move to side a little
G1 X1.4 Y20 Z0.28 F1000.0 E30 ;Draw the second line
G92 E0 ;Reset Extruder
G1 Z2.0 F3000 ;Move Z Axis up
G92 E0
G92 E0
G1 F2700 E-2
;LAYER_COUNT:50
;LAYER:0
M107
G0 F6000 X151.32 Y62.291 Z0.2
;TYPE:SKIRT
G1 F2700 E0
G3 X165.026 Y53.501 I13.090 J5.330 E0.64926 F900
G3 X171.069 Y53.518 I2.497 J186.371 E0.87536
G3 X182.596 Y74.855 I-0.375 J13.985 E1.97303
G3 X170.130 Y81.496 I-11.975 J-7.458 E2.52649
G3 X164.061 Y81.488 I-2.755 J-212.419 E2.75356
G3 X151.320 Y62.291 I0.244 J-13.989 E3.76615
G0 F6000 X151.687 Y62.45
G1 F900 X152.047 Y61.621 E3.79996
G3 X165.026 Y53.901 I12.367 J6.021 E4.39803
G3 X171.042 Y53.917 I2.487 J195.990 E4.62311
G3 X182.260 Y74.638 I-0.348 J13.586 E5.68973
G3 X170.130 Y81.096 I-11.640 J-7.242 E6.22826
G3 X164.081 Y81.088 I-2.749 J-208.322 E6.45458
G3 X151.687 Y62.450 I0.224 J-13.589 E7.43831
G0 F6000 X152.054 Y62.609
G1 F900 X152.414 Y61.78 E7.47212
G3 X165.026 Y54.301 I12.002 J5.866 E8.05280
G3 X171.016 Y54.316 I2.475 J207.813 E8.27691
G3 X181.924 Y74.421 I-0.322 J13.186 E9.31243
G3 X170.130 Y80.696 I-11.306 J-7.028 E9.83605
G3 X164.101 Y80.689 I-2.757 J-221.753 E10.06162
G3 X152.054 Y62.609 I0.204 J-13.190 E11.01649
G1 F2700 E9.01649
;MESH:InfinityCubeHinge.stl(1)
G0 F6000 X161.732 Y67.754
G0 X163.261 Y69.319
G0 X163.539 Y68.677
;TYPE:WALL-OUTER
G1 F2700 E11.01649
G3 X163.962 Y68.858 I0.753 J-1.174 E11.32726 F900
G1 X163.539 Y68.677 E11.34447
G0 F6000 X163.246 Y68.406
G1 F2700 E9.34447
G0 F6000 X162.77 Y68.923
G0 X163.649 Y69.502
G0 X163.432 Y70.17
G1 F2700 E11.34447
G2 X164.247 Y70.300 I0.908 J-3.075 E11.37542 F900
G1 X170.834 Y70.296 E11.62186
G2 X170.837 Y64.705 I-0.126 J-2.796 E11.94055
G1 X164.135 Y64.7 E12.1913
G2 X163.432 Y70.170 I0.172 J2.802 E12.48107
G0 F6000 X163.823 Y70.255
G1 F2700 E10.48107
G0 F6000 X163.973 Y69.573
G0 X170.302 Y69.556
G0 X170.361 Y68.86
G1 F2700 E12.48107
G3 X170.825 Y68.895 I0.336 J-1.360 E12.79185 F900
G1 X170.361 Y68.86 E12.80926
G0 F6000 X169.994 Y68.702
G0 X170.349 Y69.319
;TYPE:WALL-INNER
G1 F737.7 X169.701 Y69.006 E12.84211
G1 F810.8 X169.272 Y68.612 E12.8663
G1 F869.6 X168.99 Y68.091 E12.88924
G1 F900 X168.892 Y67.5 E12.91166
G3 X169.269 Y66.392 I1.814 J-0.001 E12.95604
G1 X169.711 Y65.985 E12.97852
G1 X170.162 Y65.787 E12.99695
G1 F796.5 X170.526 Y65.647 E13.01344
G1 F718.6 X171.16 Y65.697 E13.04324
G1 F725.8 X171.703 Y65.941 E13.07086
G1 F727.3 X172.008 Y66.185 E13.08894
G1 F724.3 X172.342 Y66.625 E13.11462
G1 F721.4 X172.538 Y67.208 E13.14333
G1 F722.9 X172.527 Y67.826 E13.17212
G3 X172.166 Y68.636 I-2.042 J-0.425 E13.21357 F724
G1 F721.4 X171.717 Y69.06 E13.2424
G1 F718.6 X171.146 Y69.301 E13.27144
G1 X170.796 Y69.346 E13.28798
G1 F707.3 X170.349 Y69.319 E13.3093
G0 F6000 X170.329 Y69.558
G0 X165.241 Y69.499
G1 F900 X169.756 Y69.496 E13.47822
G3 X169.752 Y65.505 I0.974 J-1.996 E13.66352
G1 X165.179 Y65.502 E13.83461
G3 X166.302 Y66.604 I-0.837 J1.976 E13.89505
G1 X166.482 Y67.14 E13.9162
G1 X166.482 Y67.86 E13.94314
G3 X165.241 Y69.499 I-2.316 J-0.464 E14.02258
G0 F6000 X166.339 Y69.098
G1 F900 X168.671 Y69.097 E14.10983
G3 X168.671 Y65.903 I1.958 J-1.597 E14.23916
G1 X166.332 Y65.903 E14.32667
G3 X166.339 Y69.098 I-1.988 J1.602 E14.45574
G0 F6000 X164.5 Y69.592
G0 X164.462 Y69.361
G1 F718.6 X163.812 Y69.29 E14.48638
G1 F720 X163.291 Y69.06 E14.51302
G1 F721.4 X162.846 Y68.666 E14.54076
G1 F722.9 X162.536 Y68.094 E14.57106
G1 F721.4 X162.44 Y67.497 E14.59928
G1 X162.547 Y66.872 E14.62888
G1 F722.9 X162.848 Y66.342 E14.65727
G1 F721.4 X163.296 Y65.934 E14.68555
G1 X163.822 Y65.707 E14.71229
G1 F720 X164.189 Y65.653 E14.72964
G1 F704.5 X164.65 Y65.68 E14.75171
G1 F734.7 X165.275 Y65.983 E14.78355
G1 F809 X165.538 Y66.187 E14.7974
G1 F853.1 X165.891 Y66.639 E14.82004
G1 F884.5 X166.082 Y67.204 E14.84274
G1 F900 X166.082 Y67.797 E14.86493
G1 X165.895 Y68.35 E14.88677
G3 X164.837 Y69.213 I-1.693 J-0.995 E14.93906
G1 F798.2 X164.462 Y69.361 E14.95606
G0 F6000 X164.555 Y69.845
G1 F794.7 X164.98 Y69.899 E14.97422
G1 F900 X169.631 Y69.896 E15.14823
G1 F869.6 X170.025 Y69.883 E15.16349
G1 F761.1 X170.327 Y69.836 E15.17702
G1 F707.3 X170.808 Y69.846 E15.19992
G1 F718.6 X171.195 Y69.8 E15.21818
G2 X171.853 Y69.544 I-0.712 J-2.803 E15.25153 F714
G1 F718.6 X172.103 Y69.382 E15.26549
G1 F715.7 X172.344 Y69.17 E15.28059
G1 F714.3 X172.602 Y68.883 E15.29878
G1 F718.6 X172.798 Y68.554 E15.31673
G2 X172.999 Y67.973 I-2.573 J-1.215 E15.34570 F716
G1 F717.1 X173.041 Y67.646 E15.36118
G1 F712.9 X173.041 Y67.271 E15.37889
G2 X172.861 Y66.592 I-2.685 J0.348 E15.41207 F714
G1 F718.6 X172.724 Y66.312 E15.42668
G1 F715.7 X172.509 Y66.001 E15.44447
G1 F714.3 X172.213 Y65.706 E15.46417
G1 F721.4 X171.988 Y65.537 E15.4773
G1 F717.1 X171.709 Y65.385 E15.49222
G1 F715.7 X171.425 Y65.268 E15.50667
G1 F717.1 X171.126 Y65.193 E15.52115
G1 F714.3 X170.81 Y65.158 E15.53613
G1 F711.5 X170.442 Y65.157 E15.55355
G1 F794.7 X170.019 Y65.105 E15.57161
G1 F900 X165.369 Y65.102 E15.74558
G1 F869.6 X164.974 Y65.115 E15.76089
G1 F759.5 X164.672 Y65.161 E15.77443
G1 F704.5 X164.169 Y65.151 E15.79848
G1 F720 X163.8 Y65.207 E15.81593
G1 F718.6 X163.498 Y65.297 E15.8307
G1 F714.3 X163.218 Y65.417 E15.84506
G1 F715.7 X162.92 Y65.599 E15.86149
G1 F714.3 X162.719 Y65.768 E15.87387
G1 F715.7 X162.49 Y66.003 E15.8893
G1 F718.6 X162.315 Y66.249 E15.90345
G1 F715.7 X162.166 Y66.526 E15.91825
G1 F717.1 X162.045 Y66.842 E15.93414
G1 F714.3 X161.984 Y67.124 E15.94774
G1 X161.951 Y67.418 E15.96169
G1 F715.7 X161.965 Y67.731 E15.97643
G1 F712.9 X162.016 Y68.038 E15.99113
G1 F717.1 X162.105 Y68.335 E16.00568
G1 X162.236 Y68.611 E16.02003
G1 F712.9 X162.411 Y68.901 E16.03603
G1 F711.5 X162.655 Y69.177 E16.05346
G1 F715.7 X162.949 Y69.421 E16.07144
G1 F718.6 X163.216 Y69.58 E16.086
G1 F714.3 X163.573 Y69.737 E16.10439
G2 X164.265 Y69.847 I0.753 J-2.504 E16.13756 F713
G1 F711.5 X164.555 Y69.845 E16.15128
G0 F6000 X164.555 Y69.599
G0 X166.78 Y68.547
G0 X167.104 Y68.655
;TYPE:SKIN
G1 F638.3 X167.898 Y68.654 E16.19317
G1 X167.77 Y68.311 E16.21248
G1 F705.9 X167.722 Y67.695 E16.24196
G1 F789.5 X167.722 Y67.306 E16.25855
G1 F737.7 X167.763 Y66.86 E16.27899
G1 F664.2 X167.77 Y66.689 E16.28767
G1 F638.3 X167.898 Y66.346 E16.30698
G1 X167.104 Y66.345 E16.34887
G1 F646.3 X167.244 Y66.765 E16.37193
G1 F705.9 X167.273 Y67.16 E16.39083
G1 F780.9 X167.267 Y67.344 E16.39876
G1 F779.2 X167.273 Y67.841 E16.42024
G1 F727.3 X167.244 Y68.234 E16.43849
G1 F665.4 X167.104 Y68.655 E16.46094
G0 F6000 X166.493 Y68.45
;MESH:NONMESH
G0 F300 X166.493 Y68.45 Z0.4
G0 F6000 X165.423 Y69.215
G0 X164.95 Y69.423
G0 X164.129 Y69.575
G0 X164.187 Y68.899
;TIME_ELAPSED:36.565964
;LAYER:1
M106 S34
;TYPE:WALL-OUTER
;MESH:InfinityCubeHinge.stl(1)
G3 X164.629 Y68.861 I0.103 J-1.390 E16.77244 F837
G1 X164.187 Y68.899 E16.78904
G0 F7500 X163.8 Y68.8
G1 F2700 E14.78904
G0 F7500 X163.633 Y69.481
G0 X164.18 Y69.601
G0 X164.126 Y70.3
G1 F2700 E16.78904
G1 F837 X170.832 Y70.296 E17.03994
G2 X170.841 Y64.704 I-0.125 J-2.796 E17.35870
G1 X164.136 Y64.701 E17.60956
G2 X164.126 Y70.300 I0.161 J2.800 E17.92583
G0 F7500 X164.526 Y70.3
G1 F2700 E15.92583
G0 F7500 X164.526 Y69.599
G0 X170.417 Y69.576
G0 X170.584 Y68.898
G1 F2700 E17.92583
G3 X171.056 Y68.855 I0.111 J-1.397 E18.23623 F837
G1 X170.584 Y68.898 E18.25396
G0 F7500 X170.196 Y68.802
G0 X170.498 Y69.355
;TYPE:WALL-INNER
G1 F737.4 X169.941 Y69.132 E18.27944
G1 F837 X169.641 Y68.951 E18.29255
G1 X169.272 Y68.612 E18.31129
G1 X168.99 Y68.091 E18.33346
G3 X168.990 Y66.909 I1.733 J-0.591 E18.37829
G3 X169.885 Y65.898 I1.811 J0.702 E18.42993
G1 F780.4 X170.332 Y65.681 E18.44987
G1 F699 X170.799 Y65.654 E18.47083
G1 F670.9 X171.156 Y65.7 E18.48763
G1 F672.3 X171.637 Y65.906 E18.512
G1 F670.9 X171.967 Y66.144 E18.53099
G1 F669.6 X172.349 Y66.637 E18.56016
G1 F666.9 X172.538 Y67.229 E18.58934
G1 F670.9 X172.527 Y67.826 E18.61721
G3 X172.166 Y68.634 I-2.031 J-0.423 E18.65858 F674
G1 F665.6 X171.939 Y68.86 E18.67365
G1 F661.7 X171.719 Y69.05 E18.68741
G1 F663 X171.429 Y69.188 E18.70258
G1 F660.4 X171.144 Y69.303 E18.71715
G1 X170.498 Y69.355 E18.74789
G0 F7500 X170.442 Y69.582
G0 X165.242 Y69.498
G1 F837 X169.779 Y69.495 E18.91763
G3 X169.758 Y65.504 I0.943 J-2.001 E19.10395
G1 X165.229 Y65.502 E19.2734
G3 X165.242 Y69.498 I-0.959 J2.001 E19.45969
G0 F7500 X166.339 Y69.098
G1 F837 X168.67 Y69.096 E19.5469
G3 X168.657 Y65.903 I1.986 J-1.605 E19.67586
G1 X166.328 Y65.902 E19.763
G3 X166.339 Y69.098 I-1.979 J1.605 E19.89217
G0 F7500 X164.727 Y69.555
G0 X164.708 Y69.316
G1 F652.6 X164.149 Y69.349 E19.91904
G1 F669.6 X163.608 Y69.219 E19.94506
G1 F672.3 X163.273 Y69.044 E19.96266
G3 X162.802 Y68.583 I1.764 J-2.274 E19.99372 F666
G1 F670.9 X162.574 Y68.164 E20.01599
G1 F663 X162.497 Y67.868 E20.03043
G1 F659.1 X162.441 Y67.494 E20.0484
G1 F666.9 X162.546 Y66.874 E20.07793
G1 F672.3 X162.826 Y66.382 E20.1043
G1 F673.6 X163.051 Y66.126 E20.12014
G1 F672.3 X163.531 Y65.809 E20.14693
G1 F669.6 X163.902 Y65.694 E20.1651
G1 X164.342 Y65.648 E20.18579
G1 F653.9 X164.692 Y65.681 E20.20262
G1 F680.5 X165.283 Y65.99 E20.23332
G1 F778.6 X165.577 Y66.24 E20.24884
G1 F837 X165.892 Y66.642 E20.26794
G3 X165.720 Y68.615 I-1.710 J0.845 E20.34596
G1 F776.8 X165.317 Y68.99 E20.36815
G1 F679.1 X164.708 Y69.316 E20.40001
G0 F7500 X164.753 Y69.838
G1 F684.7 X164.979 Y69.873 E20.41047
G1 F785.9 X165.377 Y69.898 E20.42636
G1 F837 X169.99 Y69.897 E20.59895
G1 F734.2 X170.385 Y69.84 E20.61597
G1 F657.8 X170.807 Y69.843 E20.63606
G1 F664.3 X171.191 Y69.802 E20.65426
G1 F661.7 X171.633 Y69.656 E20.67629
G1 F665.6 X172 Y69.454 E20.696
G1 F664.3 X172.285 Y69.235 E20.71295
G1 F661.7 X172.604 Y68.882 E20.73547
G1 F668.3 X172.798 Y68.554 E20.75332
G2 X172.999 Y67.973 I-2.573 J-1.215 E20.78229 F666
G1 F666.9 X173.041 Y67.646 E20.79777
G1 F663 X173.041 Y67.271 E20.81548
G2 X172.863 Y66.597 I-2.682 J0.348 E20.84841 F664
G1 F666.9 X172.724 Y66.311 E20.86334
G1 F663 X172.508 Y66.002 E20.88115
G1 F664.3 X172.233 Y65.723 E20.89962
G1 F669.6 X171.924 Y65.492 E20.91766
G1 F664.3 X171.572 Y65.324 E20.93605
G1 F665.6 X171.204 Y65.201 E20.95431
G1 F669.6 X170.815 Y65.154 E20.97263
G1 F657.8 X170.328 Y65.163 E20.99582
G1 F729.4 X169.902 Y65.104 E21.01428
G1 F837 X165.367 Y65.101 E21.18396
G1 F789.6 X164.971 Y65.126 E21.19969
G1 F690.3 X164.732 Y65.162 E21.21066
G1 F645.1 X164.245 Y65.145 E21.23431
G1 F660.4 X163.81 Y65.204 E21.25513
G1 F669.6 X163.498 Y65.293 E21.2703
G1 F668.3 X163.222 Y65.414 E21.28442
G1 F665.6 X162.957 Y65.577 E21.29906
G1 F668.3 X162.715 Y65.765 E21.31342
G1 F672.3 X162.491 Y66.002 E21.32861
G1 F668.3 X162.316 Y66.25 E21.34284
G1 F664.3 X162.165 Y66.525 E21.35763
G1 F666.9 X162.057 Y66.803 E21.37163
G1 X161.985 Y67.13 E21.38735
G1 F664.3 X161.946 Y67.502 E21.40498
G1 F661.7 X161.995 Y67.959 E21.42674
G1 F664.3 X162.104 Y68.334 E21.44515
G2 X162.402 Y68.883 I2.798 J-1.163 E21.47452 F667
G2 X162.945 Y69.418 I1.862 J-1.347 E21.51050 F666
G1 F670.9 X163.211 Y69.58 E21.52504
G1 F669.6 X163.506 Y69.709 E21.5401
G1 F665.6 X163.789 Y69.788 E21.55392
G1 F664.3 X164.16 Y69.849 E21.57165
G1 F652.6 X164.753 Y69.838 E21.60011
G0 F7500 X164.753 Y69.599
G0 X166.78 Y68.545
G0 X167.105 Y68.654
;TYPE:SKIN
G1 F593.6 X167.898 Y68.654 E21.64194
G1 X167.77 Y68.311 E21.66125
G1 F617.7 X167.763 Y68.139 E21.66998
G1 F686.1 X167.722 Y67.695 E21.69033
G1 F734.2 X167.722 Y67.306 E21.70692
G1 F686.1 X167.763 Y66.86 E21.72737
G1 F617.7 X167.77 Y66.689 E21.73604
G1 F593.6 X167.897 Y66.346 E21.75534
G1 X167.105 Y66.345 E21.79712
G1 F601.1 X167.244 Y66.766 E21.82022
G1 F656.5 X167.273 Y67.16 E21.83906
G1 F726.3 X167.267 Y67.344 E21.847
G1 F724.7 X167.273 Y67.842 E21.86852
G1 F676.4 X167.244 Y68.234 E21.88672
G1 F618.9 X167.105 Y68.654 E21.90911
G0 F7500 X166.493 Y68.448
;MESH:NONMESH
G0 F300 X166.493 Y68.448 Z0.6
G0 F7500 X165.426 Y69.213
G0 X164.922 Y69.434
G0 X164.013 Y69.575
G0 X164.18 Y68.896
;TIME_ELAPSED:49.137328
;LAYER:2
M106 S68
;TYPE:WALL-OUTER
;MESH:InfinityCubeHinge.stl(1)
G3 X164.628 Y68.861 I0.116 J-1.395 E22.22034 F830
G1 X164.18 Y68.896 E22.23715
G0 F9000 X163.793 Y68.798
G0 X163.621 Y69.476
G0 X163.909 Y69.568
G0 X163.78 Y70.258
G1 F830.2 X164.242 Y70.3 E22.25451
G1 X170.829 Y70.296 E22.50095
G2 X170.843 Y64.706 I-0.129 J-2.795 E22.81960
G1 X164.132 Y64.701 E23.07069
G2 X163.780 Y70.258 I0.173 J2.801 E23.37377
G0 F9000 X164.179 Y70.294
G1 F2700 E21.37377
G0 F9000 X164.24 Y69.598
G0 X170.407 Y69.574
G0 X170.578 Y68.898
G1 F2700 E23.37377
G3 X171.043 Y68.858 I0.114 J-1.393 E23.68443 F830
G1 X170.578 Y68.898 E23.70189
G0 F9000 X170.192 Y68.795
G0 X170.49 Y69.354
;TYPE:WALL-INNER
G1 F731.5 X169.933 Y69.129 E23.7274
G1 F830.2 X169.636 Y68.948 E23.74042
G1 X169.271 Y68.612 E23.75898
G3 X169.890 Y65.897 I1.441 J-1.100 E23.87777
G1 F726.7 X170.428 Y65.668 E23.90276
G1 F652.4 X170.846 Y65.651 E23.92268
G1 F661.5 X171.435 Y65.79 E23.9511
G1 F665.5 X171.904 Y66.098 E23.97729
G1 F660.2 X172.112 Y66.321 E23.99163
G1 F656.3 X172.322 Y66.602 E24.00824
G1 X172.418 Y66.844 E24.02056
G1 F660.2 X172.54 Y67.225 E24.03938
G3 X172.344 Y68.358 I-1.868 J0.260 E24.09337 F670
G1 F668.2 X172.128 Y68.683 E24.11151
G1 F666.9 X171.722 Y69.054 E24.13713
G1 F660.2 X171.306 Y69.24 E24.15857
G1 F657.6 X171.058 Y69.312 E24.17076
G1 X170.49 Y69.354 E24.19767
G0 F9000 X170.432 Y69.58
G0 X165.239 Y69.5
G1 F830.2 X169.779 Y69.495 E24.36753
G3 X169.760 Y65.505 I0.939 J-2.000 E24.55389
G1 X165.233 Y65.501 E24.72326
G3 X165.239 Y69.500 I-0.969 J2.001 E24.90938
G0 F9000 X166.339 Y69.098
G1 F830.2 X168.669 Y69.096 E24.99655
G3 X168.658 Y65.904 I1.979 J-1.603 E25.12554
G1 X166.33 Y65.902 E25.21264
G3 X166.339 Y69.098 I-1.984 J1.604 E25.34178
G0 F9000 X164.726 Y69.555
G0 X164.707 Y69.316
G1 F639.9 X164.138 Y69.354 E25.36946
G1 F656.3 X163.599 Y69.216 E25.39579
G1 F662.9 X163.26 Y69.037 E25.41376
G1 F656.3 X163.001 Y68.806 E25.43018
G1 F658.9 X162.802 Y68.584 E25.44424
G1 F665.5 X162.536 Y68.094 E25.47026
G1 X162.44 Y67.497 E25.49848
G1 F664.2 X162.548 Y66.875 E25.52801
G1 X162.823 Y66.376 E25.55465
G1 F665.5 X163.079 Y66.109 E25.57192
G1 F666.9 X163.547 Y65.798 E25.59809
G1 F665.5 X164.095 Y65.663 E25.62443
G1 F660.2 X164.519 Y65.649 E25.64439
G1 F733.1 X165.11 Y65.898 E25.67157
G1 F830.2 X165.523 Y66.167 E25.69001
G1 X165.891 Y66.642 E25.71249
G1 X166.084 Y67.211 E25.73497
G3 X165.655 Y68.676 I-1.736 J0.287 E25.79388
G1 F770.5 X165.315 Y68.994 E25.81265
G1 F673.6 X164.707 Y69.316 E25.84437
G0 F9000 X164.752 Y69.838
G1 F679.1 X164.975 Y69.873 E25.8547
G1 F777.7 X165.374 Y69.9 E25.87067
G1 F830.2 X169.98 Y69.896 E26.043
G1 F726.7 X170.374 Y69.839 E26.06001
G1 F651.2 X170.803 Y69.843 E26.08048
G1 F658.9 X171.127 Y69.808 E26.09584
G1 F657.6 X171.492 Y69.713 E26.11366
G1 F658.9 X171.855 Y69.543 E26.13255
G1 F662.9 X172.108 Y69.378 E26.14671
G2 X172.644 Y68.815 I-1.247 J-1.724 E26.18351 F659
G1 F664.2 X172.798 Y68.554 E26.19768
G1 F660.2 X172.918 Y68.258 E26.21271
G1 X172.999 Y67.973 E26.22665
G1 F661.5 X173.041 Y67.646 E26.24213
G1 F658.9 X173.041 Y67.37 E26.25514
