;FLAVOR:Marlin
;TIME:708
;Filament used: 0.311031m
;Layer height: 0.2
;MINX:103.523
;MINY:106.7
;MINZ:0.2
;MAXX:131.508
;MAXY:128.28
;MAXZ:10
;ARCWELDERPROCESSED
; Postprocessed by [ArcWelder](https://github.com/FormerLurker/ArcWelderLib)
; Copyright(C) 2021 - Brad Hochgesang
; Version: 1.2.0, Branch: HEAD, BuildDate: 2021-11-21T20:25:43Z
; resolution=0.05mm
; path_tolerance=5.0%
; max_radius=9999.00mm
; default_xyz_precision=3
; default_e_precision=5
; extrusion_rate_variance_percent=5.0%

;Generated with Cura_SteamEngine 5.4.0
M140 S85
M105
M190 S85
M104 S260
M105
M109 S260
M82 ;absolute extrusion mode
M201 X500.00 Y500.00 Z100.00 E5000.00 ;Setup machine max acceleration
M203 X500.00 Y500.00 Z10.00 E50.00 ;Setup machine max feedrate
M204 P500.00 R1000.00 T500.00 ;Setup Print/Retract/Travel acceleration
M205 X8.00 Y8.00 Z0.40 E5.00 ;Setup Jerk
M220 S100 ;Reset Feedrate
M221 S100 ;Reset Flowrate

G28 ;Home

G92 E0 ;Reset Extruder
G1 Z2.0 F3000 ;Move Z Axis up
G1 X1.1 Y20 Z0.28 F5000.0 ;Move to start position
G1 X1.1 Y200.0 Z0.28 F1000.0 E15 ;Draw the first line
G1 X1.4 Y200.0 Z0.28 F5000.0 ;Move to side a little
G1 X1.4 Y20 Z0.28 F1000.0 E30 ;Draw the second line
G92 E0 ;Reset Extruder
G1 Z2.0 F3000 ;Move Z Axis up
G92 E0
G92 E0
G1 F2700 E-2
;LAYER_COUNT:50
;LAYER:0
M107
G0 F6000 X107.415 Y109.19 Z0.2
;TYPE:SKIRT
G1 F2700 E0
G1 F900 X108.395 Y108.469 E0.04552
G1 X109.714 Y107.735 E0.10199
G3 X112.128 Y106.934 I4.332 J9.018 E0.19735
G1 X114.147 Y106.7 E0.27339
G1 X121.495 Y106.747 E0.54831
G1 X123.266 Y107.016 E0.61533
G1 X123.868 Y107.182 E0.6387
G1 X125.918 Y108.049 E0.72197
G1 X126.434 Y108.352 E0.74436
G1 X128.043 Y109.586 E0.82022
G1 X129.097 Y110.616 E0.87536
G1 X130.08 Y112.178 E0.94441
G1 X130.858 Y113.863 E1.01385
G3 X131.508 Y116.482 I-13.691 J4.788 E1.11491
G1 X131.471 Y118.11 E1.17584
G1 X131.149 Y120.186 E1.25444
G3 X129.464 Y123.915 I-13.109 J-3.678 E1.40810
G1 X127.954 Y125.49 E1.48974
G1 X127.139 Y126.158 E1.52916
G1 X125.402 Y127.208 E1.6051
G3 X122.952 Y128.117 I-6.226 J-13.023 E1.70297
G1 X121.654 Y128.259 E1.75182
G1 X113.806 Y128.28 E2.04545
G3 X110.842 Y127.793 I0.898 J-14.727 E2.15798
G1 X109.449 Y127.146 E2.21544
G1 X107.873 Y126.166 E2.28487
G1 X106.603 Y125.154 E2.34563
G1 X105.353 Y123.537 E2.4221
G1 X104.745 Y122.511 E2.46672
G1 X104.077 Y120.956 E2.53004
G1 X103.75 Y119.732 E2.57744
G1 X103.523 Y117.976 E2.64368
G3 X103.649 Y115.775 I9.796 J-0.543 E2.72630
G1 X104.106 Y113.986 E2.79538
G1 X104.727 Y112.515 E2.85512
G3 X105.957 Y110.664 I9.134 J4.736 E2.93839
G1 X107.415 Y109.19 E3.01596
G0 F6000 X107.653 Y109.512
G1 F900 X108.59 Y108.819 E3.05956
G1 X109.909 Y108.085 E3.11603
G3 X112.227 Y107.322 I4.134 J8.658 E3.20752
G1 X114.144 Y107.1 E3.27972
G1 X121.492 Y107.147 E3.55465
G1 X123.16 Y107.402 E3.61778
G1 X123.762 Y107.568 E3.64114
G1 X125.715 Y108.394 E3.72048
G1 X126.231 Y108.697 E3.74287
G1 X127.763 Y109.872 E3.8151
G1 X128.783 Y110.869 E3.86847
G1 X129.741 Y112.391 E3.93575
G1 X130.476 Y113.981 E4.00129
G3 X131.107 Y116.520 I-13.147 J4.615 E4.09927
G1 X131.071 Y118.101 E4.15844
G1 X130.767 Y120.068 E4.23291
G3 X129.140 Y123.674 I-12.554 J-3.494 E4.38148
G1 X127.665 Y125.213 E4.46123
G1 X126.886 Y125.848 E4.49883
G1 X125.245 Y126.84 E4.57057
G3 X122.868 Y127.723 I-5.970 J-12.431 E4.66555
G1 X121.61 Y127.861 E4.71289
G1 X113.85 Y127.882 E5.00323
G3 X110.971 Y127.412 I0.837 J-14.182 E5.11251
G1 X109.618 Y126.783 E5.16834
G1 X108.122 Y125.853 E5.23424
G1 X106.89 Y124.871 E5.29319
G1 X105.697 Y123.332 E5.36604
G1 X105.113 Y122.353 E5.40869
G1 X104.445 Y120.798 E5.47201
G1 X104.147 Y119.68 E5.5153
G1 X103.923 Y117.978 E5.57953
G3 X104.037 Y115.873 I9.439 J-0.544 E5.65852
G1 X104.475 Y114.141 E5.72536
G1 X105.072 Y112.717 E5.78313
G3 X106.278 Y110.903 I8.817 J4.554 E5.86475
G1 X107.653 Y109.512 E5.93793
G0 F6000 X107.892 Y109.833
G1 F900 X108.785 Y109.169 E5.97956
G1 X110.104 Y108.435 E6.03604
G3 X112.326 Y107.710 I3.936 J8.297 E6.12366
G1 X114.142 Y107.5 E6.19206
G1 X121.432 Y107.543 E6.46481
G1 X123.054 Y107.788 E6.52618
G1 X123.656 Y107.954 E6.54955
G1 X125.512 Y108.739 E6.62494
G1 X126.028 Y109.042 E6.64733
G1 X127.483 Y110.158 E6.71594
G1 X128.469 Y111.122 E6.76753
G1 X129.402 Y112.604 E6.83305
G1 X130.094 Y114.099 E6.89469
G3 X130.706 Y116.558 I-12.605 J4.443 E6.98960
G1 X130.671 Y118.092 E7.047
G1 X130.384 Y119.951 E7.11738
G3 X128.816 Y123.433 I-11.979 J-3.300 E7.26080
G1 X127.376 Y124.936 E7.33868
G1 X126.634 Y125.537 E7.37441
G1 X125.087 Y126.472 E7.44203
G3 X122.784 Y127.330 I-5.742 J-11.893 E7.53408
G1 X121.567 Y127.463 E7.57989
G1 X113.894 Y127.484 E7.86697
G3 X111.100 Y127.031 I0.777 J-13.633 E7.97301
G1 X109.787 Y126.42 E8.02719
G1 X108.371 Y125.54 E8.08957
G1 X107.178 Y124.589 E8.14665
G1 X106.041 Y123.127 E8.21594
G1 X105.457 Y122.148 E8.25859
G1 X104.831 Y120.694 E8.31782
G1 X104.544 Y119.628 E8.35912
G1 X104.32 Y117.926 E8.42335
G3 X104.425 Y115.970 I9.096 J-0.493 E8.49674
G1 X104.844 Y114.295 E8.56134
G1 X105.417 Y112.919 E8.6171
G3 X106.563 Y111.184 I8.591 J4.428 E8.69501
G1 X107.892 Y109.833 E8.76592
G0 F6000 X108.132 Y110.153
G1 F900 X108.98 Y109.519 E8.80553
G1 X110.299 Y108.785 E8.862
G3 X112.425 Y108.098 I3.738 J7.936 E8.94577
G1 X114.14 Y107.9 E9.01036
G1 X121.43 Y107.943 E9.28311
G1 X122.948 Y108.174 E9.34056
G1 X123.55 Y108.34 E9.36392
G1 X125.309 Y109.084 E9.43538
G1 X125.825 Y109.387 E9.45776
G1 X127.203 Y110.444 E9.52274
G1 X128.156 Y111.376 E9.57261
G1 X129.039 Y112.773 E9.63445
G1 X129.712 Y114.218 E9.69408
G3 X130.305 Y116.596 I-12.021 J4.261 E9.78588
G1 X130.271 Y118.083 E9.84153
G1 X130.001 Y119.834 E9.90782
G3 X128.491 Y123.195 I-11.448 J-3.123 E10.04621
G1 X127.124 Y124.625 E10.12023
G1 X126.382 Y125.226 E10.15595
G1 X124.929 Y126.105 E10.21949
G3 X122.700 Y126.936 I-5.507 J-11.366 E10.30859
G1 X121.523 Y127.065 E10.35289
G1 X113.938 Y127.086 E10.63668
G3 X111.230 Y126.650 I0.712 J-13.052 E10.73944
G3 X107.466 Y124.307 I4.787 J-11.885 E10.90608
G1 X106.357 Y122.881 E10.97366
G1 X105.824 Y121.989 E11.01254
G1 X105.217 Y120.589 E11.06963
G1 X104.941 Y119.576 E11.10891
G1 X104.717 Y117.874 E11.17314
G3 X104.813 Y116.066 I8.823 J-0.438 E11.24097
G1 X105.214 Y114.448 E11.30333
G1 X105.763 Y113.12 E11.3571
G3 X106.885 Y111.422 I8.259 J4.238 E11.43336
G1 X108.132 Y110.153 E11.49992
G0 F6000 X108.373 Y110.473
G1 F900 X109.175 Y109.869 E11.53749
G1 X110.494 Y109.135 E11.59396
G3 X112.471 Y108.495 I3.550 J7.592 E11.67186
G1 X114.138 Y108.3 E11.73465
G1 X121.371 Y108.339 E12.00527
G1 X122.842 Y108.56 E12.06092
G1 X123.444 Y108.726 E12.08429
G1 X125.106 Y109.429 E12.1518
G1 X125.622 Y109.732 E12.17419
G1 X126.923 Y110.73 E12.23554
G1 X127.843 Y111.63 E12.28369
G1 X128.676 Y112.942 E12.34183
G1 X129.349 Y114.387 E12.40147
G3 X129.904 Y116.634 I-11.630 J4.065 E12.48816
G1 X129.871 Y118.074 E12.54205
G1 X129.618 Y119.717 E12.60425
G3 X128.167 Y122.954 I-10.879 J-2.933 E12.73750
G1 X126.872 Y124.314 E12.80776
G1 X126.13 Y124.915 E12.84348
G1 X124.771 Y125.738 E12.90293
G3 X122.616 Y126.543 I-5.313 J-10.936 E12.98909
G1 X121.48 Y126.667 E13.03185
G1 X113.981 Y126.688 E13.31241
G3 X111.360 Y126.269 I0.647 J-12.452 E13.41186
G3 X107.752 Y124.024 I4.560 J-11.351 E13.57158
G1 X106.673 Y122.636 E13.63736
G1 X106.191 Y121.829 E13.67253
G1 X105.603 Y120.482 E13.72751
G1 X105.338 Y119.524 E13.7647
G1 X105.114 Y117.822 E13.82893
G3 X105.202 Y116.161 I8.501 J-0.382 E13.89123
G1 X105.584 Y114.601 E13.95132
G1 X106.133 Y113.273 E14.00509
G3 X107.207 Y111.660 I7.948 J4.128 E14.07769
G1 X108.373 Y110.473 E14.13995
G0 F6000 X108.614 Y110.793
G1 F900 X109.416 Y110.189 E14.17751
G1 X110.641 Y109.507 E14.22997
G3 X112.518 Y108.892 I3.413 J7.245 E14.30401
G1 X114.136 Y108.7 E14.36497
G1 X121.312 Y108.735 E14.63345
G1 X122.736 Y108.946 E14.68731
G1 X123.338 Y109.112 E14.71067
G1 X124.903 Y109.774 E14.77425
G1 X125.419 Y110.077 E14.79664
G1 X126.643 Y111.016 E14.85436
G1 X127.532 Y111.885 E14.90087
G1 X128.314 Y113.112 E14.95531
G1 X128.967 Y114.506 E15.0129
G3 X129.503 Y116.672 I-11.034 J3.880 E15.09647
G1 X129.471 Y118.065 E15.1486
G1 X129.235 Y119.6 E15.20671
G3 X127.842 Y122.716 I-10.352 J-2.758 E15.33493
G1 X126.62 Y124.003 E15.40133
G1 X125.878 Y124.604 E15.43706
G1 X124.612 Y125.371 E15.49244
G3 X122.532 Y126.149 I-5.063 J-10.366 E15.57562
G1 X121.436 Y126.269 E15.61687
G1 X114.024 Y126.29 E15.89418
G3 X111.489 Y125.887 I0.580 J-11.822 E15.99036
G3 X108.038 Y123.741 I4.326 J-10.804 E16.14311
G1 X106.989 Y122.391 E16.20708
G1 X106.558 Y121.669 E16.23854
G1 X105.97 Y120.322 E16.29353
G1 X105.734 Y119.471 E16.32657
G1 X105.514 Y117.828 E16.38859
G3 X105.591 Y116.255 I8.390 J-0.378 E16.44757
G1 X105.954 Y114.753 E16.50538
G1 X106.479 Y113.474 E16.55711
G3 X107.529 Y111.898 I7.605 J3.929 E16.62807
G1 X108.614 Y110.793 E16.68601
G0 F6000 X108.855 Y111.113
G1 F900 X109.657 Y110.509 E16.72357
G3 X112.566 Y109.289 I4.664 J7.043 E16.84223
G1 X114.134 Y109.1 E16.90132
G1 X121.254 Y109.131 E17.16771
G1 X122.63 Y109.332 E17.21974
G1 X123.232 Y109.498 E17.2431
G1 X124.7 Y110.119 E17.30274
G1 X125.216 Y110.422 E17.32512
G3 X127.219 Y112.139 I-6.134 J9.182 E17.42400
G1 X127.952 Y113.283 E17.47484
G1 X128.585 Y114.625 E17.53035
G3 X129.102 Y116.710 I-10.441 J3.695 E17.61081
G3 X127.518 Y122.476 I-9.578 J0.469 E17.83831
G1 X126.368 Y123.692 E17.90093
G1 X125.626 Y124.293 E17.93666
G1 X124.452 Y125.004 E17.98801
G3 X122.448 Y125.755 I-4.799 J-9.758 E18.06817
G1 X121.392 Y125.871 E18.10792
G1 X114.066 Y125.892 E18.38202
G3 X111.619 Y125.506 I0.519 J-11.239 E18.47484
G3 X108.324 Y123.457 I4.081 J-10.237 E18.62070
G1 X107.332 Y122.185 E18.68105
G1 X106.925 Y121.509 E18.71057
G1 X106.337 Y120.162 E18.76556
G1 X106.13 Y119.417 E18.79449
G1 X105.914 Y117.833 E18.8543
G3 X105.989 Y116.298 I8.055 J-0.376 E18.91186
G1 X106.324 Y114.904 E18.9655
G1 X106.826 Y113.674 E19.0152
G3 X107.851 Y112.136 I7.228 J3.707 E19.08446
G1 X108.855 Y111.113 E19.13809
G0 F6000 X109.096 Y111.433
G3 X112.615 Y109.686 I5.226 J6.110 E19.28651 F900
G1 X114.132 Y109.5 E19.34369
G1 X121.197 Y109.527 E19.60802
G1 X122.524 Y109.718 E19.65818
G1 X123.126 Y109.884 E19.68155
G1 X124.497 Y110.464 E19.73724
G1 X125.013 Y110.767 E19.75963
G3 X126.907 Y112.394 I-5.806 J8.675 E19.85321
G1 X127.59 Y113.454 E19.90039
G1 X128.223 Y114.796 E19.95591
G3 X128.701 Y116.748 I-10.098 J3.507 E20.03117
G3 X127.195 Y122.236 I-9.121 J0.448 E20.24770
G1 X126.116 Y123.381 E20.30656
G3 X122.364 Y125.362 I-5.866 J-6.566 E20.46677
G1 X121.349 Y125.473 E20.50497
G1 X114.107 Y125.494 E20.77592
G3 X111.749 Y125.125 I0.461 J-10.667 E20.86536
G3 X108.609 Y123.173 I3.852 J-9.699 E21.00435
G1 X107.674 Y121.977 E21.06114
G1 X107.292 Y121.349 E21.08865
G1 X106.704 Y120.002 E21.14363
G1 X106.516 Y119.312 E21.17039
G1 X106.314 Y117.837 E21.22609
G3 X106.387 Y116.341 I7.717 J-0.373 E21.28219
G1 X106.695 Y115.054 E21.3317
G1 X107.173 Y113.874 E21.37934
G3 X108.137 Y112.415 I6.976 J3.561 E21.44486
G1 X109.096 Y111.433 E21.49622
G0 F6000 X109.337 Y111.753
G3 X112.665 Y110.083 I4.991 J5.795 E21.63687 F900
G1 X114.131 Y109.9 E21.69214
G1 X121.14 Y109.923 E21.95438
G1 X122.467 Y110.114 E22.00454
G1 X123.018 Y110.269 E22.02595
G1 X124.294 Y110.809 E22.07779
G1 X124.81 Y111.112 E22.10018
G3 X126.596 Y112.649 I-5.513 J8.212 E22.18849
G1 X127.229 Y113.626 E22.23205
G1 X127.841 Y114.915 E22.28544
G3 X128.300 Y116.786 I-9.487 J3.319 E22.35759
G3 X126.872 Y121.995 I-8.650 J0.429 E22.56311
G1 X125.863 Y123.071 E22.61829
G3 X122.280 Y124.968 I-5.573 J-6.193 E22.77141
G1 X121.305 Y125.075 E22.8081
G1 X114.147 Y125.096 E23.07591
G3 X111.879 Y124.744 I0.407 J-10.103 E23.16192
G3 X108.896 Y122.890 I3.611 J-9.136 E23.29396
G1 X108.016 Y121.769 E23.34728
G1 X107.634 Y121.141 E23.37479
G1 X107.089 Y119.895 E23.42567
G1 X106.912 Y119.257 E23.45044
G1 X106.714 Y117.841 E23.50393
G3 X107.066 Y115.204 I7.269 J-0.372 E23.60396
G1 X107.544 Y114.024 E23.65159
G3 X108.424 Y112.694 I6.689 J3.470 E23.71134
G1 X109.337 Y111.753 E23.76039
G0 F6000 X109.579 Y112.072
G3 X112.716 Y110.480 I4.760 J5.493 E23.89326 F900
G1 X114.13 Y110.3 E23.94659
G1 X121.084 Y110.319 E24.20677
G1 X122.359 Y110.499 E24.25494
G1 X122.91 Y110.654 E24.27636
G1 X124.091 Y111.154 E24.32434
G3 X126.283 Y112.903 I-4.266 J7.594 E24.42969
G3 X127.899 Y116.824 I-6.884 J5.131 E24.58999
G3 X126.549 Y121.754 I-8.169 J0.413 E24.78450
G1 X125.571 Y122.797 E24.83799
G3 X122.196 Y124.575 I-5.254 J-5.881 E24.98204
G1 X121.262 Y124.677 E25.01719
G1 X114.187 Y124.698 E25.2819
G3 X112.008 Y124.362 I0.352 J-9.513 E25.36452
G3 X109.180 Y122.605 I3.373 J-8.583 E25.48970
G1 X108.358 Y121.561 E25.53942
G1 X107.976 Y120.933 E25.56692
G1 X107.474 Y119.786 E25.61376
G1 X107.308 Y119.2 E25.63655
G1 X107.114 Y117.844 E25.6878
G3 X107.437 Y115.353 I6.870 J-0.376 E25.78223
G1 X107.891 Y114.223 E25.82779
G3 X109.579 Y112.072 I6.584 J3.429 E25.93061
G0 F6000 X109.822 Y112.39
G1 F900 X110.532 Y111.846 E25.96408
G3 X112.768 Y110.877 I3.684 J5.437 E26.05568
G1 X114.129 Y110.7 E26.10703
G1 X121.029 Y110.715 E26.36519
G1 X122.251 Y110.884 E26.41134
G1 X122.802 Y111.039 E26.43276
G1 X123.888 Y111.499 E26.47688
G3 X125.970 Y113.157 I-3.959 J7.108 E26.57689
G3 X127.498 Y116.862 I-6.455 J4.830 E26.72839
G3 X126.226 Y121.513 I-7.675 J0.400 E26.91189
G1 X125.279 Y122.523 E26.96369
G3 X122.112 Y124.181 I-4.934 J-5.570 E27.09866
G1 X121.218 Y124.279 E27.13231
G1 X114.186 Y124.298 E27.39541
G3 X112.138 Y123.981 I0.333 J-8.924 E27.47307
G3 X109.466 Y122.322 I3.144 J-8.046 E27.59133
G3 X107.858 Y119.675 I5.598 J-5.213 E27.70794
G1 X107.704 Y119.142 E27.7287
G1 X107.514 Y117.846 E27.7777
G3 X109.822 Y112.390 I6.820 J-0.331 E28.00688
G0 F6000 X110.067 Y112.706
G1 F900 X110.73 Y112.193 E28.03824
G3 X112.821 Y111.274 I3.544 J5.225 E28.12409
G1 X114.128 Y111.1 E28.17342
G1 X120.975 Y111.111 E28.42959
G1 X122.143 Y111.269 E28.47369
G3 X125.658 Y113.412 I-1.568 J6.526 E28.63008
G3 X127.097 Y116.899 I-6.029 J4.528 E28.77270
G3 X125.903 Y121.272 I-7.184 J0.388 E28.94523
G1 X124.987 Y122.249 E28.99534
G3 X122.028 Y123.788 I-4.616 J-5.261 E29.12124
G1 X121.175 Y123.881 E29.15334
G1 X114.185 Y123.898 E29.41487
G3 X112.268 Y123.600 I0.314 J-8.334 E29.48758
G3 X109.751 Y122.038 I2.915 J-7.506 E29.59897
G3 X107.916 Y117.094 I4.930 J-4.643 E29.80176
G3 X110.067 Y112.706 I6.357 J0.395 E29.98920
G0 F6000 X110.313 Y113.021
G1 F900 X110.93 Y112.54 E30.01847
G3 X112.928 Y111.660 I3.349 J4.895 E30.10054
G1 X114.127 Y111.5 E30.1458
G1 X120.974 Y111.511 E30.40197
G3 X125.348 Y113.669 I-0.341 J6.204 E30.58937
G3 X126.696 Y116.936 I-5.593 J4.219 E30.72301
G3 X125.577 Y121.035 I-6.485 J0.432 E30.88475
G1 X124.731 Y121.941 E30.93113
G3 X121.944 Y123.394 I-4.321 J-4.888 E31.04980
G1 X121.131 Y123.483 E31.0804
G1 X114.184 Y123.498 E31.34031
G3 X112.397 Y123.218 I0.293 J-7.714 E31.40810
G3 X110.038 Y121.755 I2.666 J-6.933 E31.51250
G3 X108.377 Y116.556 I4.576 J-4.327 E31.72391
G3 X110.313 Y113.021 I5.905 J0.936 E31.87755
G0 F6000 X110.561 Y113.335
G1 F900 X111.131 Y112.886 E31.9047
G3 X113.035 Y112.046 I3.154 J4.572 E31.98295
G1 X114.126 Y111.9 E32.02413
G1 X120.973 Y111.911 E32.2803
G3 X126.107 Y116.060 I-0.270 J5.585 E32.54439
G1 X126.295 Y116.974 E32.57931
G3 X125.251 Y120.798 I-6.016 J0.412 E32.73023
G1 X124.475 Y121.633 E32.77288
G3 X121.087 Y123.085 I-3.787 J-4.157 E32.91342
G1 X114.183 Y123.098 E33.17172
G3 X112.524 Y122.836 I0.276 J-7.133 E33.23467
G3 X110.324 Y121.471 I2.430 J-6.372 E33.33205
G3 X110.561 Y113.335 I4.080 J-3.953 E33.67195
G0 F6000 X110.851 Y113.611
G1 F900 X111.334 Y113.231 E33.69494
G3 X114.125 Y112.300 I2.988 J4.307 E33.80639
G1 X120.972 Y112.311 E34.06256
G3 X125.715 Y116.141 I-0.270 J5.186 E34.30626
G3 X121.044 Y122.687 I-5.025 J1.354 E34.65032
G1 X114.182 Y122.698 E34.90706
G3 X111.319 Y121.756 I0.113 J-5.164 E35.02153
G1 X110.61 Y121.188 E35.05551
G3 X110.851 Y113.611 I3.777 J-3.672 E35.37239
G0 F6000 X111.101 Y113.924
G1 F900 X111.537 Y113.576 E35.39327
G3 X114.124 Y112.700 I2.789 J3.979 E35.49674
G1 X120.971 Y112.711 E35.75291
G3 X124.960 Y119.704 I-0.271 J4.789 E36.11027
G1 X124.6 Y120.323 E36.13706
G3 X121.692 Y122.213 I-4.078 J-3.092 E36.26930
