;FLAVOR:Marlin
;TIME:2342
;Filament used: 1.97631m
;Layer height: 0.2
;MINX:105.679
;MINY:102.558
;MINZ:0.2
;MAXX:129.321
;MAXY:132.442
;MAXZ:24
;ARCWELDERPROCESSED
; Postprocessed by [ArcWelder](https://github.com/FormerLurker/ArcWelderLib)
; Copyright(C) 2021 - Brad Hochgesang
; Version: 1.2.0, Branch: HEAD, BuildDate: 2021-11-21T20:25:43Z
; resolution=0.05mm
; path_tolerance=5.0%
; max_radius=9999.00mm
; default_xyz_precision=3
; default_e_precision=5
; extrusion_rate_variance_percent=5.0%

;Generated with Cura_SteamEngine 5.4.0
M140 S85
M105
M190 S85
M104 S260
M105
M109 S260
M82 ;absolute extrusion mode
M201 X500.00 Y500.00 Z100.00 E5000.00 ;Setup machine max acceleration
M203 X500.00 Y500.00 Z10.00 E50.00 ;Setup machine max feedrate
M204 P500.00 R1000.00 T500.00 ;Setup Print/Retract/Travel acceleration
M205 X8.00 Y8.00 Z0.40 E5.00 ;Setup Jerk
M220 S100 ;Reset Feedrate
M221 S100 ;Reset Flowrate

G28 ;Home

G92 E0 ;Reset Extruder
G1 Z2.0 F3000 ;Move Z Axis up
G1 X1.1 Y20 Z0.28 F5000.0 ;Move to start position
G1 X1.1 Y200.0 Z0.28 F1000.0 E15 ;Draw the first line
G1 X1.4 Y200.0 Z0.28 F5000.0 ;Move to side a little
G1 X1.4 Y20 Z0.28 F1000.0 E30 ;Draw the second line
G92 E0 ;Reset Extruder
G1 Z2.0 F3000 ;Move Z Axis up
G92 E0
G92 E0
G1 F2700 E-2
;LAYER_COUNT:120
;LAYER:0
M107
G0 F6000 X109.881 Y104.796 Z0.2
;TYPE:SKIRT
G1 F2700 E0
G1 F900 X111.292 Y103.775 E0.06516
G1 X112.582 Y103.045 E0.12062
G1 X114.662 Y102.559 E0.20053
G1 X120.257 Y102.558 E0.40987
G1 X122.327 Y103.005 E0.4891
G1 X124.56 Y104.278 E0.58526
G1 X125.836 Y105.688 E0.65641
G1 X126.744 Y106.965 E0.71504
G1 X127.521 Y109.294 E0.80689
G1 X127.521 Y125.459 E1.41169
G1 X126.976 Y127.337 E1.48485
G1 X126.503 Y128.464 E1.53058
G1 X125.119 Y130.204 E1.61376
G1 X123.708 Y131.225 E1.67892
G1 X122.418 Y131.955 E1.73438
G1 X120.338 Y132.441 E1.8143
G1 X114.743 Y132.442 E2.02363
G1 X112.673 Y131.995 E2.10286
G1 X110.44 Y130.722 E2.19903
G1 X109.164 Y129.312 E2.27017
G1 X108.256 Y128.035 E2.3288
G1 X107.479 Y125.706 E2.42066
G1 X107.479 Y109.541 E3.02545
G1 X108.024 Y107.663 E3.09861
G1 X108.497 Y106.536 E3.14434
G1 X109.881 Y104.796 E3.22752
G0 F6000 X110.159 Y105.089
G3 X112.730 Y103.421 I8.610 J10.456 E3.34237 F900
G1 X114.706 Y102.959 E3.41829
G1 X120.215 Y102.958 E3.6244
G1 X122.184 Y103.383 E3.69977
G1 X124.305 Y104.593 E3.79113
G1 X125.51 Y105.92 E3.85819
G1 X126.384 Y107.149 E3.91462
G1 X127.121 Y109.358 E4.00174
G1 X127.121 Y125.403 E4.60205
G1 X126.607 Y127.182 E4.67133
G1 X126.155 Y128.259 E4.71503
G1 X124.841 Y129.911 E4.794
G3 X122.270 Y131.579 I-8.610 J-10.456 E4.90885
G1 X120.294 Y132.041 E4.98477
G1 X114.785 Y132.042 E5.19088
G1 X112.816 Y131.617 E5.26625
G1 X110.695 Y130.407 E5.35761
G1 X109.49 Y129.08 E5.42467
G1 X108.616 Y127.851 E5.48109
G1 X107.879 Y125.642 E5.56822
G1 X107.879 Y109.597 E6.16853
G1 X108.393 Y107.818 E6.23781
G1 X108.845 Y106.741 E6.28151
G1 X110.159 Y105.089 E6.36048
G0 F6000 X110.439 Y105.379
G3 X112.875 Y103.798 I8.103 J9.819 E6.46931 F900
G1 X114.754 Y103.359 E6.5415
G1 X120.172 Y103.358 E6.74421
G1 X122.041 Y103.762 E6.81575
G1 X124.051 Y104.908 E6.90232
G1 X125.184 Y106.152 E6.96527
G1 X126.024 Y107.333 E7.0195
G1 X126.721 Y109.422 E7.10189
G1 X126.721 Y125.347 E7.6977
G1 X126.238 Y127.027 E7.76311
G1 X125.807 Y128.054 E7.80478
G1 X124.561 Y129.621 E7.87968
G3 X122.125 Y131.202 I-8.103 J-9.819 E7.98851
G1 X120.246 Y131.641 E8.0607
G1 X114.828 Y131.642 E8.26341
G1 X112.959 Y131.238 E8.33495
G1 X110.949 Y130.092 E8.42152
G1 X109.816 Y128.848 E8.48447
G1 X108.976 Y127.667 E8.53869
G1 X108.279 Y125.578 E8.62109
G1 X108.279 Y109.653 E9.2169
G1 X108.762 Y107.973 E9.2823
G1 X109.193 Y106.946 E9.32397
G1 X110.439 Y105.379 E9.39888
G0 F6000 X110.718 Y105.671
G3 X113.023 Y104.174 I7.545 J9.094 E9.50188 F900
G1 X114.798 Y103.759 E9.57008
G1 X120.13 Y103.758 E9.76957
G1 X121.898 Y104.14 E9.83725
G1 X123.797 Y105.223 E9.91904
G1 X124.858 Y106.384 E9.97788
G1 X125.664 Y107.517 E10.0299
G1 X126.321 Y109.486 E10.10756
G1 X126.321 Y125.289 E10.69881
G1 X125.869 Y126.872 E10.76041
G1 X125.459 Y127.849 E10.80005
G1 X124.282 Y129.329 E10.8708
G3 X121.977 Y130.826 I-7.545 J-9.094 E10.97380
G1 X120.202 Y131.241 E11.042
G1 X114.87 Y131.242 E11.24149
G1 X113.102 Y130.86 E11.30917
G1 X111.203 Y129.777 E11.39096
G1 X110.142 Y128.616 E11.4498
G1 X109.336 Y127.483 E11.50182
G1 X108.679 Y125.514 E11.57948
G1 X108.679 Y109.711 E12.17074
G1 X109.131 Y108.128 E12.23233
G1 X109.541 Y107.151 E12.27197
G1 X110.718 Y105.671 E12.34272
G0 F6000 X110.998 Y105.962
G3 X113.168 Y104.551 I7.011 J8.408 E12.43973 F900
G1 X114.846 Y104.159 E12.5042
G1 X120.087 Y104.158 E12.70029
G1 X121.752 Y104.518 E12.76402
G1 X123.545 Y105.54 E12.84124
G3 X125.304 Y107.701 I-7.799 J8.144 E12.94569
G1 X125.921 Y109.55 E13.01861
G1 X125.921 Y125.233 E13.60537
G1 X125.5 Y126.717 E13.66309
G1 X125.111 Y127.644 E13.7007
G1 X124.002 Y129.038 E13.76735
G3 X121.832 Y130.449 I-7.011 J-8.408 E13.86436
G1 X120.154 Y130.841 E13.92883
G1 X114.913 Y130.842 E14.12491
G1 X113.248 Y130.482 E14.18865
G1 X111.455 Y129.46 E14.26586
G3 X109.696 Y127.299 I7.799 J-8.144 E14.37031
G1 X109.079 Y125.45 E14.44324
G1 X109.079 Y109.767 E15.03
G1 X109.5 Y108.283 E15.08772
G1 X109.889 Y107.356 E15.12533
G1 X110.998 Y105.962 E15.19197
G0 F6000 X111.278 Y106.252
G3 X113.316 Y104.927 I6.485 J7.745 E15.28309 F900
G1 X114.89 Y104.559 E15.34357
G1 X120.044 Y104.558 E15.5364
G1 X121.606 Y104.896 E15.59619
G1 X123.294 Y105.858 E15.66888
G3 X124.944 Y107.885 I-7.183 J7.532 E15.76686
G1 X125.521 Y109.614 E15.83506
G1 X125.521 Y125.178 E16.41737
G1 X125.131 Y126.562 E16.47116
G1 X124.763 Y127.439 E16.50675
G1 X123.722 Y128.748 E16.56932
G3 X121.684 Y130.073 I-6.485 J-7.745 E16.66043
G1 X120.11 Y130.441 E16.72091
G1 X114.956 Y130.442 E16.91374
G1 X113.394 Y130.104 E16.97353
G1 X111.706 Y129.142 E17.04622
G3 X110.056 Y127.115 I7.183 J-7.532 E17.14421
G1 X109.479 Y125.386 E17.2124
G1 X109.479 Y109.822 E17.79471
G1 X109.869 Y108.438 E17.84851
G1 X110.237 Y107.561 E17.88409
G1 X111.278 Y106.252 E17.94666
G0 F6000 X111.557 Y106.544
G3 X113.462 Y105.304 I5.962 J7.076 E18.03187 F900
G1 X114.938 Y104.959 E18.08858
G1 X120.001 Y104.958 E18.27801
G1 X121.46 Y105.274 E18.33386
G1 X123.043 Y106.176 E18.40202
G3 X124.584 Y108.068 I-6.555 J6.912 E18.49351
G1 X125.121 Y109.678 E18.55701
G1 X125.121 Y125.123 E19.13486
G3 X124.415 Y127.234 I-8.777 J-1.762 E19.21830
G1 X123.443 Y128.456 E19.27672
G3 X121.538 Y129.696 I-5.962 J-7.076 E19.36192
G1 X120.062 Y130.041 E19.41863
G1 X114.999 Y130.042 E19.60806
G1 X113.54 Y129.726 E19.66391
G1 X111.957 Y128.824 E19.73208
G3 X110.416 Y126.932 I6.555 J-6.912 E19.82356
G1 X109.879 Y125.322 E19.88706
G1 X109.879 Y109.877 E20.46492
G3 X110.585 Y107.766 I8.777 J1.762 E20.54835
G1 X111.557 Y106.544 E20.60677
G0 F6000 X111.837 Y106.834
G3 X113.609 Y105.680 I5.444 J6.422 E20.68605 F900
G1 X114.982 Y105.359 E20.7388
G1 X119.958 Y105.358 E20.92497
G1 X121.314 Y105.652 E20.97688
G1 X122.792 Y106.494 E21.04052
G3 X124.224 Y108.253 I-5.940 J6.298 E21.12557
G1 X124.721 Y109.742 E21.1843
G1 X124.721 Y125.07 E21.75778
G3 X124.067 Y127.029 I-8.024 J-1.590 E21.83520
G1 X123.163 Y128.166 E21.88955
G3 X121.391 Y129.320 I-5.444 J-6.422 E21.96882
G1 X120.018 Y129.641 E22.02157
G1 X115.042 Y129.642 E22.20774
G1 X113.686 Y129.348 E22.25966
G1 X112.208 Y128.506 E22.3233
G3 X110.776 Y126.747 I5.940 J-6.298 E22.40834
G1 X110.279 Y125.258 E22.46707
G1 X110.279 Y109.93 E23.04055
G3 X110.933 Y107.971 I8.024 J1.590 E23.11797
G1 X111.837 Y106.834 E23.17232
G0 F6000 X112.116 Y107.126
G3 X113.754 Y106.057 I4.936 J5.773 E23.24565 F900
G1 X115.03 Y105.759 E23.29467
G1 X119.915 Y105.758 E23.47744
G1 X121.168 Y106.03 E23.52541
G1 X122.54 Y106.811 E23.58448
G3 X123.864 Y108.438 I-5.328 J5.688 E23.66314
G1 X124.321 Y109.806 E23.7171
G1 X124.321 Y125.014 E24.28609
G3 X123.719 Y126.824 I-7.246 J-1.405 E24.35760
G1 X122.884 Y127.874 E24.40779
G3 X121.246 Y128.943 I-4.936 J-5.773 E24.48113
G1 X119.97 Y129.241 E24.53015
G1 X115.085 Y129.242 E24.71292
G1 X113.832 Y128.97 E24.76089
G1 X112.46 Y128.189 E24.81995
G3 X111.136 Y126.562 I5.328 J-5.688 E24.89861
G1 X110.679 Y125.194 E24.95258
G1 X110.679 Y109.986 E25.52157
G3 X111.281 Y108.176 I7.246 J1.405 E25.59308
G1 X112.116 Y107.126 E25.64327
G0 F6000 X112.395 Y107.418
G3 X113.897 Y106.435 I4.423 J5.119 E25.71058 F900
G1 X115.078 Y106.159 E25.75595
G1 X119.871 Y106.158 E25.93528
G1 X121.022 Y106.408 E25.97934
G1 X122.289 Y107.129 E26.03389
G3 X123.504 Y108.621 I-4.769 J5.124 E26.10605
G1 X123.921 Y109.87 E26.15531
G1 X123.921 Y124.96 E26.71989
G3 X123.371 Y126.619 I-6.490 J-1.231 E26.78542
G1 X122.605 Y127.582 E26.83146
G3 X121.103 Y128.565 I-4.423 J-5.119 E26.89876
G1 X119.922 Y128.841 E26.94414
G1 X115.129 Y128.842 E27.12346
G1 X113.978 Y128.592 E27.16753
G1 X112.711 Y127.871 E27.22207
G3 X111.496 Y126.379 I4.769 J-5.124 E27.29423
G1 X111.079 Y125.13 E27.3435
G1 X111.079 Y110.04 E27.90807
G3 X111.629 Y108.381 I6.490 J1.231 E27.97360
G1 X112.395 Y107.418 E28.01964
G0 F6000 X112.674 Y107.71
G3 X114.039 Y106.813 I3.922 J4.481 E28.08089 F900
G1 X115.126 Y106.559 E28.12266
G1 X119.827 Y106.558 E28.29854
G1 X120.876 Y106.786 E28.3387
G1 X122.038 Y107.447 E28.38872
G3 X123.144 Y108.804 I-4.208 J4.559 E28.45438
G1 X123.521 Y109.934 E28.49895
G1 X123.521 Y124.905 E29.05907
G3 X123.023 Y126.414 I-5.731 J-1.055 E29.11866
G1 X122.326 Y127.29 E29.16054
G3 X120.961 Y128.187 I-3.922 J-4.481 E29.22179
G1 X119.874 Y128.441 E29.26356
G1 X115.173 Y128.442 E29.43944
G1 X114.124 Y128.214 E29.4796
G1 X112.962 Y127.553 E29.52962
G3 X111.856 Y126.196 I4.208 J-4.559 E29.59528
G1 X111.479 Y125.066 E29.63985
G1 X111.479 Y110.095 E30.19997
G3 X111.977 Y108.586 I5.731 J1.055 E30.25956
G1 X112.674 Y107.71 E30.30144
G0 F6000 X112.953 Y108.002
G3 X114.183 Y107.190 I3.415 J3.836 E30.35672 F900
G1 X115.17 Y106.959 E30.39464
G1 X119.783 Y106.958 E30.56723
G1 X120.73 Y107.164 E30.60349
G1 X121.787 Y107.765 E30.64899
G3 X122.783 Y108.985 I-3.651 J3.997 E30.70807
G1 X123.121 Y109.998 E30.74802
G1 X123.121 Y124.851 E31.30373
G3 X122.047 Y126.998 I-3.834 J-0.576 E31.39506
G3 X120.817 Y127.810 I-3.415 J-3.836 E31.45034
G1 X119.83 Y128.041 E31.48827
G1 X115.217 Y128.042 E31.66086
G1 X114.27 Y127.836 E31.69712
G1 X113.213 Y127.235 E31.74261
G3 X112.217 Y126.015 I3.651 J-3.997 E31.80169
G1 X111.879 Y125.002 E31.84164
G1 X111.879 Y110.149 E32.39735
G3 X112.953 Y108.002 I3.834 J0.576 E32.48869
G0 F6000 X113.232 Y108.294
G1 F900 X113.942 Y107.769 E32.52172
G1 X114.327 Y107.567 E32.53799
G1 X115.214 Y107.359 E32.57208
G1 X119.739 Y107.358 E32.74137
G1 X120.584 Y107.542 E32.77373
G1 X121.536 Y108.083 E32.8147
G3 X122.721 Y110.062 I-2.378 J2.768 E32.90254
G1 X122.721 Y124.799 E33.4539
G3 X121.768 Y126.706 I-3.363 J-0.489 E33.53504
G3 X120.673 Y127.433 I-2.897 J-3.175 E33.58435
G1 X119.786 Y127.641 E33.61843
G1 X115.261 Y127.642 E33.78773
G1 X114.416 Y127.458 E33.82009
G1 X113.464 Y126.917 E33.86105
G3 X112.279 Y124.938 I2.378 J-2.768 E33.94889
G1 X112.279 Y110.201 E34.50026
G3 X113.232 Y108.294 I3.363 J0.489 E34.58140
G0 F6000 X113.511 Y108.586
G1 F900 X114.18 Y108.091 E34.61253
G1 X114.47 Y107.944 E34.6247
G1 X115.258 Y107.759 E34.65498
G1 X119.695 Y107.758 E34.82099
G1 X120.438 Y107.92 E34.84944
G1 X121.285 Y108.401 E34.88588
G3 X122.321 Y110.126 I-2.033 J2.395 E34.96253
G1 X122.321 Y124.747 E35.50956
G3 X121.489 Y126.414 I-2.891 J-0.402 E35.58050
G1 X120.82 Y126.909 E35.61164
G1 X120.53 Y127.056 E35.6238
G1 X119.742 Y127.241 E35.65408
G1 X115.305 Y127.242 E35.82009
G1 X114.562 Y127.08 E35.84854
G1 X113.715 Y126.599 E35.88498
G3 X112.679 Y124.874 I2.033 J-2.395 E35.96164
G1 X112.679 Y110.253 E36.50866
G3 X113.511 Y108.586 I2.891 J0.402 E36.57960
G0 F6000 X113.793 Y108.875
G1 F900 X114.361 Y108.448 E36.60619
G1 X114.611 Y108.321 E36.61668
G1 X115.302 Y108.159 E36.64323
G1 X119.651 Y108.158 E36.80595
G1 X120.294 Y108.298 E36.83057
G1 X121.034 Y108.718 E36.8624
G3 X121.921 Y110.189 I-1.669 J2.010 E36.92786
G1 X121.921 Y124.696 E37.47062
G3 X121.207 Y126.125 I-2.382 J-0.297 E37.53148
G3 X120.389 Y126.679 I-1.979 J-2.042 E37.56856
G1 X119.698 Y126.841 E37.59511
G1 X115.349 Y126.842 E37.75783
G1 X114.706 Y126.702 E37.78245
G1 X113.966 Y126.282 E37.81428
G3 X113.079 Y124.811 I1.669 J-2.010 E37.87974
G1 X113.079 Y110.304 E38.4225
G3 X113.793 Y108.875 I2.382 J0.297 E38.48336
G0 F6000 X114.074 Y109.164
G1 F900 X114.601 Y108.768 E38.50803
G3 X115.346 Y108.559 I0.880 J1.706 E38.53707
G1 X119.607 Y108.558 E38.69649
G1 X120.15 Y108.676 E38.71728
G1 X120.783 Y109.035 E38.74451
G3 X121.521 Y110.255 I-1.195 J1.556 E38.79888
G1 X121.521 Y124.645 E39.33727
G3 X120.926 Y125.836 I-1.842 J-0.176 E39.38803
G1 X120.399 Y126.232 E39.41269
G3 X119.654 Y126.441 I-0.880 J-1.705 E39.44174
G1 X115.393 Y126.442 E39.60116
G1 X114.85 Y126.324 E39.62195
G1 X114.217 Y125.965 E39.64918
G3 X113.479 Y124.745 I1.195 J-1.556 E39.70355
G1 X113.479 Y110.355 E40.24193
G3 X114.074 Y109.164 I1.842 J0.176 E40.29269
G0 F6000 X114.355 Y109.453
G1 F900 X114.841 Y109.088 E40.31543
G1 X115.39 Y108.959 E40.33653
G1 X119.563 Y108.958 E40.49266
G1 X120.005 Y109.054 E40.50958
G3 X120.883 Y109.724 I-0.658 J1.772 E40.55136
G3 X121.121 Y110.321 I-1.233 J0.837 E40.57552
G1 X121.121 Y124.597 E41.10964
G3 X120.645 Y125.547 I-1.447 J-0.131 E41.15020
G1 X120.159 Y125.912 E41.17294
G1 X119.61 Y126.041 E41.19404
G1 X115.437 Y126.042 E41.35017
G1 X114.995 Y125.946 E41.36709
G3 X114.117 Y125.276 I0.658 J-1.772 E41.40886
G3 X113.879 Y124.679 I1.233 J-0.837 E41.43302
G1 X113.879 Y110.403 E41.96714
G3 X114.355 Y109.453 I1.447 J0.131 E42.00770
G0 F6000 X114.638 Y109.741
G1 F900 X115.015 Y109.458 E42.02534
G1 X115.435 Y109.359 E42.04148
G1 X119.52 Y109.358 E42.19432
G3 X120.592 Y109.999 I-0.174 J1.508 E42.24237
G1 X120.721 Y110.387 E42.25767
G1 X120.721 Y124.549 E42.78753
G1 X120.631 Y124.922 E42.80188
G3 X119.565 Y125.641 I-1.277 J-0.743 E42.85180
G1 X115.48 Y125.642 E43.00463
G3 X114.408 Y125.001 I0.174 J-1.508 E43.05268
G1 X114.279 Y124.613 E43.06798
G1 X114.279 Y110.451 E43.59784
G1 X114.369 Y110.078 E43.61219
G1 X114.638 Y109.741 E43.62833
G0 F6000 X115.118 Y110.381
G3 X115.479 Y110.159 I0.501 J0.410 E43.64436 F900
G1 X119.52 Y110.158 E43.79555
G1 X119.836 Y110.337 E43.80914
G1 X119.921 Y110.45 E43.81443
G1 X119.921 Y124.5 E44.34009
G1 X119.882 Y124.619 E44.34478
G3 X119.521 Y124.841 I-0.501 J-0.410 E44.36081
G1 X115.48 Y124.842 E44.512
G1 X115.164 Y124.663 E44.52559
G1 X115.079 Y124.55 E44.53088
G1 X115.079 Y110.5 E45.05655
G1 X115.118 Y110.381 E45.06123
G0 F6000 X114.878 Y110.061
G3 X115.479 Y109.759 I0.643 J0.532 E45.08694 F900
G1 X119.52 Y109.758 E45.23813
G3 X120.321 Y110.450 I-0.117 J0.945 E45.28016
G1 X120.321 Y124.5 E45.80582
G3 X119.521 Y125.241 I-0.859 J-0.125 E45.84990
G1 X115.48 Y125.242 E46.00109
G3 X114.679 Y124.550 I0.117 J-0.945 E46.04312
G1 X114.679 Y110.5 E46.56878
G3 X114.878 Y110.061 I0.641 J0.026 E46.58716
G1 F2700 E44.58716
;MESH:InfinityCube1.stl
G0 F6000 X115.693 Y110.773
G0 X115.479 Y124.395
;TYPE:WALL-OUTER
G1 F2700 E46.58716
G1 F900 X115.545 Y124.442 E46.59019
G1 X119.457 Y124.441 E46.73655
G1 X119.521 Y124.395 E46.7395
G1 X119.521 Y110.605 E47.25544
G1 X119.455 Y110.558 E47.25847
G1 X115.542 Y110.559 E47.40487
G1 X115.479 Y110.604 E47.40777
G1 X115.479 Y124.395 E47.92374
G0 F6000 X115.545 Y124.442
G0 X115.864 Y124.442
G0 X115.879 Y124.042
;TYPE:WALL-INNER
G1 F900 X119.121 Y124.041 E48.04504
G1 X119.121 Y110.958 E48.53452
G1 X115.879 Y110.958 E48.65582
G1 X115.879 Y124.042 E49.14534
G0 F6000 X116.279 Y123.642
G1 F900 X118.721 Y123.641 E49.2367
G1 X118.721 Y111.358 E49.69626
G1 X116.279 Y111.358 E49.78762
G1 X116.279 Y123.642 E50.24721
G0 F6000 X116.679 Y123.242
G1 F900 X118.321 Y123.241 E50.30865
G1 X118.321 Y111.758 E50.73827
G1 X116.679 Y111.758 E50.7997
G1 X116.679 Y123.242 E51.22936
G0 F6000 X118.149 Y123.069
G0 X117.961 Y122.881
;TYPE:SKIN
G1 F900 X117.961 Y112.118 E51.63205
G1 X117.039 Y112.118 E51.66655
G1 X117.039 Y122.881 E52.06923
G1 X117.961 Y122.881 E52.10373
G0 F6000 X117.589 Y122.68
G1 F900 X117.238 Y122.329 E52.1223
