;FLAVOR:Marlin
;TIME:2416
;Filament used: 1.99772m
;Layer height: 0.2
;MINX:102.558
;MINY:105.664
;MINZ:0.2
;MAXX:132.442
;MAXY:129.321
;MAXZ:24
;ARCWELDERPROCESSED
; Postprocessed by [ArcWelder](https://github.com/FormerLurker/ArcWelderLib)
; Copyright(C) 2021 - Brad Hochgesang
; Version: 1.2.0, Branch: HEAD, BuildDate: 2021-11-21T20:25:43Z
; resolution=0.05mm
; path_tolerance=5.0%
; max_radius=9999.00mm
; default_xyz_precision=3
; default_e_precision=5
; extrusion_rate_variance_percent=5.0%

;Generated with Cura_SteamEngine 5.4.0
M140 S85
M105
M190 S85
M104 S260
M105
M109 S260
M82 ;absolute extrusion mode
M201 X500.00 Y500.00 Z100.00 E5000.00 ;Setup machine max acceleration
M203 X500.00 Y500.00 Z10.00 E50.00 ;Setup machine max feedrate
M204 P500.00 R1000.00 T500.00 ;Setup Print/Retract/Travel acceleration
M205 X8.00 Y8.00 Z0.40 E5.00 ;Setup Jerk
M220 S100 ;Reset Feedrate
M221 S100 ;Reset Flowrate

G28 ;Home

G92 E0 ;Reset Extruder
G1 Z2.0 F3000 ;Move Z Axis up
G1 X1.1 Y20 Z0.28 F5000.0 ;Move to start position
G1 X1.1 Y200.0 Z0.28 F1000.0 E15 ;Draw the first line
G1 X1.4 Y200.0 Z0.28 F5000.0 ;Move to side a little
G1 X1.4 Y20 Z0.28 F1000.0 E30 ;Draw the second line
G92 E0 ;Reset Extruder
G1 Z2.0 F3000 ;Move Z Axis up
G92 E0
G92 E0
G1 F2700 E-2
;LAYER_COUNT:120
;LAYER:0
M107
G0 F6000 X104.278 Y110.44 Z0.2
;TYPE:SKIRT
G1 F2700 E0
G1 F900 X105.688 Y109.164 E0.07115
G1 X106.965 Y108.256 E0.12977
G1 X109.294 Y107.479 E0.22163
G1 X125.459 Y107.479 E0.82642
G1 X127.337 Y108.024 E0.89959
G1 X128.464 Y108.497 E0.94532
G1 X130.204 Y109.881 E1.0285
G1 X131.225 Y111.292 E1.09366
G1 X131.955 Y112.582 E1.14912
G1 X132.441 Y114.662 E1.22903
G1 X132.442 Y120.257 E1.43836
G1 X131.995 Y122.327 E1.51759
G1 X130.722 Y124.56 E1.61376
G1 X129.312 Y125.836 E1.68491
G1 X128.035 Y126.744 E1.74353
G1 X125.706 Y127.521 E1.83539
G1 X109.549 Y127.522 E2.43989
G1 X107.664 Y126.977 E2.5133
G1 X106.536 Y126.504 E2.55906
G1 X104.796 Y125.12 E2.64225
G1 X103.775 Y123.709 E2.70741
G1 X103.045 Y122.419 E2.76286
G1 X102.559 Y120.339 E2.84278
G1 X102.558 Y114.743 E3.05215
G1 X103.005 Y112.673 E3.13138
G1 X104.278 Y110.44 E3.22755
G0 F6000 X104.593 Y110.695
G1 F900 X105.92 Y109.49 E3.29461
G1 X107.149 Y108.616 E3.35103
G1 X109.358 Y107.879 E3.43816
G1 X125.403 Y107.879 E4.03846
G1 X127.182 Y108.393 E4.10775
G1 X128.259 Y108.845 E4.15145
G1 X129.911 Y110.159 E4.23042
G3 X131.579 Y112.730 I-10.456 J8.610 E4.34527
G1 X132.041 Y114.706 E4.42119
G1 X132.042 Y120.215 E4.6273
G1 X131.617 Y122.184 E4.70267
G1 X130.407 Y124.305 E4.79403
G1 X129.08 Y125.51 E4.86109
G1 X127.851 Y126.384 E4.91751
G1 X125.642 Y127.121 E5.00464
G1 X109.605 Y127.122 E5.60464
G1 X107.819 Y126.608 E5.67418
G1 X106.741 Y126.156 E5.71791
G1 X105.089 Y124.842 E5.79689
G3 X103.421 Y122.271 I10.456 J-8.610 E5.91173
G1 X102.959 Y120.295 E5.98766
G1 X102.958 Y114.785 E6.19381
G1 X103.383 Y112.816 E6.26917
G1 X104.593 Y110.695 E6.36053
G0 F6000 X104.908 Y110.949
G1 F900 X106.152 Y109.816 E6.42348
G1 X107.333 Y108.976 E6.47771
G1 X109.422 Y108.279 E6.5601
G1 X125.347 Y108.279 E7.15591
G1 X127.027 Y108.762 E7.22132
G1 X128.054 Y109.193 E7.26299
G1 X129.621 Y110.439 E7.33789
G3 X131.202 Y112.875 I-9.819 J8.103 E7.44672
G1 X131.641 Y114.754 E7.51891
G1 X131.642 Y120.172 E7.72162
G1 X131.238 Y122.041 E7.79316
G1 X130.092 Y124.051 E7.87973
G1 X128.848 Y125.184 E7.94268
G1 X127.667 Y126.024 E7.9969
G1 X125.578 Y126.721 E8.0793
G1 X109.663 Y126.722 E8.67474
G1 X107.974 Y126.239 E8.74046
G1 X106.946 Y125.808 E8.78217
G1 X105.379 Y124.562 E8.85707
G3 X103.798 Y122.126 I9.819 J-8.103 E8.96590
G1 X103.359 Y120.247 E9.03809
G1 X103.358 Y114.828 E9.24084
G1 X103.762 Y112.959 E9.31238
G1 X104.908 Y110.949 E9.39895
G0 F6000 X105.223 Y111.203
G1 F900 X106.384 Y110.142 E9.45779
G1 X107.517 Y109.336 E9.50981
G1 X109.486 Y108.679 E9.58747
G1 X125.289 Y108.679 E10.17872
G1 X126.872 Y109.131 E10.24032
G1 X127.849 Y109.541 E10.27996
G1 X129.329 Y110.718 E10.35071
G3 X130.826 Y113.023 I-9.094 J7.545 E10.45371
G1 X131.241 Y114.798 E10.52191
G1 X131.242 Y120.13 E10.7214
G1 X130.86 Y121.898 E10.78908
G1 X129.777 Y123.797 E10.87087
G1 X128.616 Y124.858 E10.92971
G1 X127.483 Y125.664 E10.98173
G1 X125.514 Y126.321 E11.05939
G1 X109.72 Y126.322 E11.65031
G1 X108.129 Y125.87 E11.71219
G1 X107.151 Y125.46 E11.75186
G1 X105.671 Y124.283 E11.82261
G3 X104.174 Y121.978 I9.094 J-7.545 E11.92562
G1 X103.759 Y120.203 E11.99382
G1 X103.758 Y114.87 E12.19335
G1 X104.14 Y113.102 E12.26102
G1 X105.223 Y111.203 E12.34281
G0 F6000 X105.54 Y111.455
G3 X107.701 Y109.696 I8.144 J7.799 E12.44726 F900
G1 X109.55 Y109.079 E12.52019
G1 X125.233 Y109.079 E13.10695
G1 X126.717 Y109.5 E13.16466
G1 X127.644 Y109.889 E13.20228
G1 X129.038 Y110.998 E13.26892
G3 X130.449 Y113.168 I-8.408 J7.011 E13.36593
G1 X130.841 Y114.846 E13.4304
G1 X130.842 Y120.087 E13.62649
G1 X130.482 Y121.752 E13.69022
G1 X129.46 Y123.545 E13.76744
G3 X127.299 Y125.304 I-8.144 J-7.799 E13.87189
G1 X125.45 Y125.921 E13.94482
G1 X109.776 Y125.922 E14.53124
G1 X108.284 Y125.501 E14.58924
G1 X107.356 Y125.112 E14.62689
G1 X105.962 Y124.003 E14.69354
G3 X104.551 Y121.833 I8.408 J-7.011 E14.79055
G1 X104.159 Y120.155 E14.85502
G1 X104.158 Y114.913 E15.05114
G1 X104.518 Y113.248 E15.11488
G1 X105.54 Y111.455 E15.19209
G0 F6000 X105.858 Y111.706
G3 X107.885 Y110.056 I7.532 J7.183 E15.29007 F900
G1 X109.614 Y109.479 E15.35827
G1 X125.178 Y109.479 E15.94058
G1 X126.562 Y109.869 E15.99437
G1 X127.439 Y110.237 E16.02996
G1 X128.748 Y111.278 E16.09253
G3 X130.073 Y113.316 I-7.745 J6.485 E16.18364
G1 X130.441 Y114.89 E16.24412
G1 X130.442 Y120.044 E16.43695
G1 X130.104 Y121.606 E16.49675
G1 X129.142 Y123.294 E16.56944
G3 X127.115 Y124.944 I-7.532 J-7.183 E16.66742
G1 X125.386 Y125.521 E16.73561
G1 X109.831 Y125.522 E17.31758
G1 X108.439 Y125.132 E17.37167
G1 X107.561 Y124.764 E17.40729
G1 X106.252 Y123.723 E17.46986
G3 X104.927 Y121.685 I7.745 J-6.485 E17.56097
G1 X104.559 Y120.111 E17.62145
G1 X104.558 Y114.956 E17.81432
G1 X104.896 Y113.394 E17.87411
G1 X105.858 Y111.706 E17.9468
G0 F6000 X106.176 Y111.957
G3 X108.068 Y110.416 I6.912 J6.555 E18.03829 F900
G1 X109.678 Y109.879 E18.10179
G1 X125.123 Y109.879 E18.67964
G3 X127.234 Y110.585 I-1.762 J8.777 E18.76308
G1 X128.456 Y111.557 E18.8215
G3 X129.696 Y113.462 I-7.076 J5.962 E18.90670
G1 X130.041 Y114.938 E18.96341
G1 X130.042 Y120.001 E19.15284
G1 X129.726 Y121.46 E19.20869
G1 X128.824 Y123.043 E19.27686
G3 X126.932 Y124.584 I-6.912 J-6.555 E19.36834
G1 X125.322 Y125.121 E19.43184
G1 X109.884 Y125.122 E20.00943
G1 X108.594 Y124.763 E20.05953
G1 X107.766 Y124.416 E20.09312
G1 X106.544 Y123.444 E20.15154
G3 X105.304 Y121.539 I7.076 J-5.962 E20.23674
G1 X104.959 Y120.063 E20.29346
G1 X104.958 Y114.999 E20.48292
G1 X105.274 Y113.54 E20.53877
G1 X106.176 Y111.957 E20.60694
G0 F6000 X106.494 Y112.208
G3 X108.253 Y110.776 I6.298 J5.940 E20.69198 F900
G1 X109.742 Y110.279 E20.75071
G1 X125.07 Y110.279 E21.32419
G3 X127.029 Y110.933 I-1.590 J8.024 E21.40161
G1 X128.166 Y111.837 E21.45596
G3 X129.320 Y113.609 I-6.422 J5.444 E21.53523
G1 X129.641 Y114.982 E21.58799
G1 X129.642 Y119.958 E21.77416
G1 X129.348 Y121.314 E21.82607
G1 X128.506 Y122.792 E21.88971
G3 X126.747 Y124.224 I-6.298 J-5.940 E21.97476
G1 X125.258 Y124.721 E22.03349
G1 X109.94 Y124.722 E22.60659
G3 X107.971 Y124.068 I1.555 J-7.973 E22.68437
G1 X106.834 Y123.164 E22.73872
G3 X105.680 Y121.392 I6.422 J-5.444 E22.81799
G1 X105.359 Y120.019 E22.87075
G1 X105.358 Y115.042 E23.05695
G1 X105.652 Y113.686 E23.10887
G1 X106.494 Y112.208 E23.17251
G0 F6000 X106.811 Y112.46
G3 X108.438 Y111.136 I5.688 J5.328 E23.25117 F900
G1 X109.806 Y110.679 E23.30513
G1 X125.014 Y110.679 E23.87412
G3 X126.824 Y111.281 I-1.405 J7.246 E23.94563
G1 X127.874 Y112.116 E23.99582
G3 X128.943 Y113.754 I-5.773 J4.936 E24.06915
G1 X129.241 Y115.03 E24.11818
G1 X129.242 Y119.915 E24.30095
G1 X128.97 Y121.168 E24.34892
G1 X128.189 Y122.54 E24.40798
G3 X126.562 Y123.864 I-5.688 J-5.328 E24.48664
G1 X125.194 Y124.321 E24.54061
G1 X109.994 Y124.322 E25.1093
G3 X108.176 Y123.720 I1.380 J-7.215 E25.18109
G1 X107.126 Y122.885 E25.23129
G3 X106.057 Y121.247 I5.773 J-4.936 E25.30462
G1 X105.759 Y119.971 E25.35364
G1 X105.758 Y115.085 E25.53645
G1 X106.03 Y113.832 E25.58442
G1 X106.811 Y112.46 E25.64348
G0 F6000 X107.129 Y112.711
G3 X108.621 Y111.496 I5.124 J4.769 E25.71564 F900
G1 X109.87 Y111.079 E25.76491
G1 X124.96 Y111.079 E26.32948
G3 X126.619 Y111.629 I-1.231 J6.490 E26.39502
G1 X127.582 Y112.395 E26.44105
G3 X128.565 Y113.897 I-5.119 J4.423 E26.50836
G1 X128.841 Y115.078 E26.55374
G1 X128.842 Y119.871 E26.73306
G1 X128.592 Y121.022 E26.77713
G1 X127.871 Y122.289 E26.83167
G3 X126.379 Y123.504 I-5.124 J-4.769 E26.90383
G1 X125.13 Y123.921 E26.9531
G1 X110.047 Y123.922 E27.51741
G3 X108.381 Y123.372 I1.212 J-6.469 E27.58319
G1 X107.418 Y122.606 E27.62923
G3 X106.435 Y121.104 I5.119 J-4.423 E27.69654
G1 X106.159 Y119.923 E27.74191
G1 X106.158 Y115.129 E27.92127
G1 X106.408 Y113.978 E27.96534
G1 X107.129 Y112.711 E28.01988
G0 F6000 X107.447 Y112.962
G3 X108.804 Y111.856 I4.559 J4.208 E28.08554 F900
G1 X109.934 Y111.479 E28.13011
G1 X124.905 Y111.479 E28.69023
G3 X126.414 Y111.977 I-1.055 J5.731 E28.74982
G1 X127.29 Y112.674 E28.79171
G3 X128.187 Y114.039 I-4.481 J3.922 E28.85296
G1 X128.441 Y115.126 E28.89472
G1 X128.442 Y119.827 E29.0706
G1 X128.214 Y120.876 E29.11077
G1 X127.553 Y122.038 E29.16078
G3 X126.196 Y123.144 I-4.559 J-4.208 E29.22644
G1 X125.066 Y123.521 E29.27101
G1 X110.101 Y123.522 E29.83091
G3 X108.586 Y123.024 I1.041 J-5.719 E29.89071
G1 X107.71 Y122.327 E29.9326
G3 X106.813 Y120.962 I4.481 J-3.922 E29.99385
G1 X106.559 Y119.875 E30.03561
G1 X106.558 Y115.173 E30.21153
G1 X106.786 Y114.124 E30.25169
G1 X107.447 Y112.962 E30.30171
G0 F6000 X107.765 Y113.213
G3 X108.985 Y112.217 I3.997 J3.651 E30.36079 F900
G1 X109.998 Y111.879 E30.40075
G1 X124.851 Y111.879 E30.95645
G3 X126.998 Y112.953 I-0.576 J3.834 E31.04779
G3 X127.810 Y114.183 I-3.836 J3.415 E31.10307
G1 X128.041 Y115.17 E31.14099
G1 X128.042 Y119.783 E31.31358
G1 X127.836 Y120.73 E31.34984
G1 X127.235 Y121.787 E31.39533
G3 X126.015 Y122.783 I-3.997 J-3.651 E31.45441
G1 X125.002 Y123.121 E31.49437
G1 X110.154 Y123.122 E32.04989
G3 X108.002 Y122.048 I0.565 J-3.825 E32.14141
G3 X107.190 Y120.818 I3.836 J-3.415 E32.19668
G1 X106.959 Y119.831 E32.23461
G1 X106.958 Y115.217 E32.40723
G1 X107.164 Y114.27 E32.44349
G1 X107.765 Y113.213 E32.48899
G0 F6000 X108.083 Y113.464
G3 X110.062 Y112.279 I2.768 J2.378 E32.57683 F900
G1 X124.799 Y112.279 E33.12819
G3 X126.706 Y113.232 I-0.489 J3.363 E33.20933
G3 X127.433 Y114.327 I-3.175 J2.897 E33.25863
G1 X127.641 Y115.214 E33.29272
G1 X127.642 Y119.739 E33.46202
G1 X127.458 Y120.584 E33.49437
G1 X126.917 Y121.536 E33.53534
G3 X124.938 Y122.721 I-2.768 J-2.378 E33.62318
G1 X110.205 Y122.722 E34.1744
G3 X108.294 Y121.769 I0.480 J-3.356 E34.25568
G3 X107.567 Y120.674 I3.175 J-2.897 E34.30499
G1 X107.359 Y119.787 E34.33907
G1 X107.358 Y115.261 E34.50841
G1 X107.542 Y114.416 E34.54076
G1 X108.083 Y113.464 E34.58173
G0 F6000 X108.401 Y113.715
G3 X110.126 Y112.679 I2.395 J2.033 E34.65838 F900
G1 X124.747 Y112.679 E35.20541
G3 X126.414 Y113.511 I-0.402 J2.891 E35.27635
G1 X126.909 Y114.18 E35.30748
G1 X127.056 Y114.47 E35.31965
G1 X127.241 Y115.258 E35.34993
G1 X127.242 Y119.695 E35.51594
G1 X127.08 Y120.438 E35.54439
G1 X126.599 Y121.285 E35.58083
G3 X124.874 Y122.321 I-2.395 J-2.033 E35.65748
G1 X110.257 Y122.322 E36.20436
G3 X108.586 Y121.490 I0.393 J-2.884 E36.27545
G1 X108.091 Y120.821 E36.30658
G1 X107.944 Y120.531 E36.31875
G1 X107.759 Y119.743 E36.34903
G1 X107.758 Y115.305 E36.51507
G1 X107.92 Y114.562 E36.54352
G1 X108.401 Y113.715 E36.57997
G0 F6000 X108.718 Y113.966
G3 X110.189 Y113.079 I2.010 J1.669 E36.64543 F900
G1 X124.696 Y113.079 E37.18819
G3 X126.125 Y113.793 I-0.297 J2.382 E37.24905
G3 X126.679 Y114.611 I-2.042 J1.979 E37.28613
G1 X126.841 Y115.302 E37.31268
G1 X126.842 Y119.651 E37.47539
G1 X126.702 Y120.294 E37.50001
G1 X126.282 Y121.034 E37.53185
G3 X124.811 Y121.921 I-2.010 J-1.669 E37.59730
G1 X110.307 Y121.922 E38.13995
G3 X108.875 Y121.208 I0.292 J-2.378 E38.20092
G3 X108.321 Y120.390 I2.042 J-1.979 E38.23800
G1 X108.159 Y119.699 E38.26456
G1 X108.158 Y115.349 E38.42731
G1 X108.298 Y114.706 E38.45193
G1 X108.718 Y113.966 E38.48376
G0 F6000 X109.035 Y114.217
G3 X110.255 Y113.479 I1.556 J1.195 E38.53813 F900
G1 X124.645 Y113.479 E39.07652
G3 X125.836 Y114.074 I-0.176 J1.842 E39.12728
G1 X126.232 Y114.601 E39.15194
G3 X126.441 Y115.346 I-1.706 J0.880 E39.18099
G1 X126.442 Y119.607 E39.34041
G1 X126.324 Y120.15 E39.3612
G1 X125.965 Y120.783 E39.38843
G3 X124.745 Y121.521 I-1.556 J-1.195 E39.44280
G1 X110.356 Y121.522 E39.98114
G3 X109.164 Y120.927 I0.175 J-1.841 E40.03194
G1 X108.768 Y120.4 E40.0566
G3 X108.559 Y119.655 I1.706 J-0.880 E40.08565
G1 X108.558 Y115.393 E40.24511
G1 X108.676 Y114.85 E40.2659
G1 X109.035 Y114.217 E40.29313
G0 F6000 X109.354 Y114.467
G3 X110.321 Y113.879 I1.217 J0.913 E40.33634 F900
G1 X124.597 Y113.879 E40.87046
G3 X125.547 Y114.355 I-0.131 J1.447 E40.91102
G1 X125.912 Y114.841 E40.93376
G1 X126.041 Y115.39 E40.95486
G1 X126.042 Y119.563 E41.11099
G1 X125.946 Y120.005 E41.12791
G3 X125.276 Y120.883 I-1.772 J-0.658 E41.16969
G3 X124.679 Y121.121 I-0.837 J-1.233 E41.19385
G1 X110.404 Y121.122 E41.72793
G3 X109.453 Y120.646 I0.129 J-1.446 E41.76853
G1 X109.088 Y120.16 E41.79127
G1 X108.959 Y119.611 E41.81237
G1 X108.958 Y115.437 E41.96853
G1 X109.054 Y114.995 E41.98545
G1 X109.354 Y114.467 E42.00818
G0 F6000 X109.671 Y114.718
G1 F900 X109.999 Y114.408 E42.02506
G1 X110.387 Y114.279 E42.04036
G1 X124.549 Y114.279 E42.57021
G1 X124.922 Y114.369 E42.58457
G3 X125.641 Y115.435 I-0.743 J1.277 E42.63448
G1 X125.642 Y119.52 E42.78732
G3 X125.001 Y120.592 I-1.508 J-0.174 E42.83537
G1 X124.613 Y120.721 E42.85067
G1 X110.452 Y120.722 E43.38049
G1 X110.078 Y120.632 E43.39488
G3 X109.359 Y119.566 I0.743 J-1.277 E43.44479
G1 X109.358 Y115.48 E43.59767
G3 X109.671 Y114.718 I1.377 J0.120 E43.62883
G0 F6000 X110.337 Y115.164
G1 F900 X110.45 Y115.079 E43.63412
G1 X124.5 Y115.079 E44.15979
G1 X124.619 Y115.118 E44.16447
G3 X124.841 Y115.479 I-0.410 J0.501 E44.18051
G1 X124.842 Y119.52 E44.3317
G1 X124.663 Y119.836 E44.34529
G1 X124.55 Y119.921 E44.35058
G1 X110.5 Y119.922 E44.87624
G1 X110.381 Y119.883 E44.88093
G3 X110.159 Y119.522 I0.410 J-0.501 E44.89696
G1 X110.158 Y115.48 E45.04819
G1 X110.337 Y115.164 E45.06178
G0 F6000 X109.989 Y114.967
G3 X110.450 Y114.679 I0.542 J0.354 E45.08260 F900
G1 X124.5 Y114.679 E45.60826
G3 X125.241 Y115.479 I-0.125 J0.859 E45.65234
G1 X125.242 Y119.52 E45.80353
G3 X124.550 Y120.321 I-0.945 J-0.117 E45.84556
G1 X110.5 Y120.322 E46.37122
G3 X109.759 Y119.522 I0.125 J-0.859 E46.41530
G1 X109.758 Y115.48 E46.56653
G3 X109.989 Y114.967 I1.090 J0.182 E46.58774
G1 F2700 E44.58774
;MESH:InfinityCube2.stl
G0 F6000 X110.772 Y115.693
G0 X124.441 Y115.542
;TYPE:WALL-OUTER
G1 F2700 E46.58774
G1 F900 X124.396 Y115.479 E46.59064
G1 X110.605 Y115.479 E47.10661
G1 X110.558 Y115.545 E47.10964
G1 X110.559 Y119.457 E47.25601
G1 X110.605 Y119.522 E47.25898
G1 X124.395 Y119.521 E47.77492
G1 X124.442 Y119.455 E47.77795
G1 X124.441 Y115.542 E47.92435
G0 F6000 X124.396 Y115.479
G0 X124.073 Y115.479
G0 X123.771 Y116.149
G0 X111.93 Y116.851
G0 X111.229 Y118.852
G0 X110.959 Y119.122
;TYPE:WALL-INNER
G1 F900 X124.042 Y119.121 E48.41384
G1 X124.042 Y115.878 E48.53517
G1 X110.958 Y115.879 E49.02469
G1 X110.959 Y119.122 E49.14603
G0 F6000 X111.359 Y118.722
G1 F900 X123.642 Y118.721 E49.60558
G1 X123.642 Y116.278 E49.69698
G1 X111.358 Y116.279 E50.15657
G1 X111.359 Y118.722 E50.24798
G0 F6000 X111.759 Y118.322
G1 F900 X123.242 Y118.321 E50.6776
G1 X123.242 Y116.678 E50.73907
G1 X111.758 Y116.679 E51.16873
G1 X111.759 Y118.322 E51.2302
G0 F6000 X123.07 Y118.149
G0 X122.882 Y117.961
;TYPE:SKIN
G1 F900 X122.882 Y117.039 E51.2647
G1 X112.118 Y117.039 E51.66742
G1 X112.119 Y117.962 E51.70195
G1 X122.882 Y117.961 E52.10464
G0 F6000 X122.68 Y117.589
