;FLAVOR:Marlin
;TIME:2300
;Filament used: 1.95989m
;Layer height: 0.2
;MINX:102.558
;MINY:105.65
;MINZ:0.2
;MAXX:132.442
;MAXY:129.321
;MAXZ:24
;ARCWELDERPROCESSED
; Postprocessed by [ArcWelder](https://github.com/FormerLurker/ArcWelderLib)
; Copyright(C) 2021 - Brad Hochgesang
; Version: 1.2.0, Branch: HEAD, BuildDate: 2021-11-21T20:25:43Z
; resolution=0.05mm
; path_tolerance=5.0%
; max_radius=9999.00mm
; default_xyz_precision=3
; default_e_precision=5
; extrusion_rate_variance_percent=5.0%

;Generated with Cura_SteamEngine 5.4.0
M140 S85
M105
M190 S85
M104 S260
M105
M109 S260
M82 ;absolute extrusion mode
M201 X500.00 Y500.00 Z100.00 E5000.00 ;Setup machine max acceleration
M203 X500.00 Y500.00 Z10.00 E50.00 ;Setup machine max feedrate
M204 P500.00 R1000.00 T500.00 ;Setup Print/Retract/Travel acceleration
M205 X8.00 Y8.00 Z0.40 E5.00 ;Setup Jerk
M220 S100 ;Reset Feedrate
M221 S100 ;Reset Flowrate

G28 ;Home

G92 E0 ;Reset Extruder
G1 Z2.0 F3000 ;Move Z Axis up
G1 X1.1 Y20 Z0.28 F5000.0 ;Move to start position
G1 X1.1 Y200.0 Z0.28 F1000.0 E15 ;Draw the first line
G1 X1.4 Y200.0 Z0.28 F5000.0 ;Move to side a little
G1 X1.4 Y20 Z0.28 F1000.0 E30 ;Draw the second line
G92 E0 ;Reset Extruder
G1 Z2.0 F3000 ;Move Z Axis up
G92 E0
G92 E0
G1 F2700 E-2
;LAYER_COUNT:120
;LAYER:0
M107
G0 F6000 X104.278 Y110.44 Z0.2
;TYPE:SKIRT
G1 F2700 E0
G1 F900 X105.688 Y109.164 E0.07115
G1 X106.965 Y108.256 E0.12977
G1 X109.294 Y107.479 E0.22163
G1 X125.459 Y107.479 E0.82642
G1 X127.337 Y108.024 E0.89959
G1 X128.464 Y108.497 E0.94532
G1 X130.204 Y109.881 E1.0285
G1 X131.225 Y111.292 E1.09366
G1 X131.955 Y112.582 E1.14912
G1 X132.441 Y114.662 E1.22903
G1 X132.442 Y120.257 E1.43836
G1 X131.995 Y122.327 E1.51759
G1 X130.722 Y124.56 E1.61376
G1 X129.312 Y125.836 E1.68491
G1 X128.035 Y126.744 E1.74353
G1 X125.706 Y127.521 E1.83539
G1 X109.541 Y127.521 E2.44019
G1 X107.663 Y126.976 E2.51335
G1 X106.536 Y126.503 E2.55908
G1 X104.796 Y125.119 E2.64226
G1 X103.775 Y123.708 E2.70742
G1 X103.045 Y122.418 E2.76288
G1 X102.559 Y120.338 E2.84279
G1 X102.558 Y114.743 E3.05212
G1 X103.005 Y112.673 E3.13136
G1 X104.278 Y110.44 E3.22752
G0 F6000 X104.593 Y110.695
G1 F900 X105.92 Y109.49 E3.29459
G1 X107.149 Y108.616 E3.35101
G1 X109.358 Y107.879 E3.43814
G1 X125.403 Y107.879 E4.03844
G1 X127.182 Y108.393 E4.10772
G1 X128.259 Y108.845 E4.15142
G1 X129.911 Y110.159 E4.2304
G3 X131.579 Y112.730 I-10.456 J8.610 E4.34524
G1 X132.041 Y114.706 E4.42117
G1 X132.042 Y120.215 E4.62728
G1 X131.617 Y122.184 E4.70264
G1 X130.407 Y124.305 E4.794
G1 X129.08 Y125.51 E4.86107
G1 X127.851 Y126.384 E4.91749
G1 X125.642 Y127.121 E5.00461
G1 X109.597 Y127.121 E5.60492
G1 X107.818 Y126.607 E5.6742
G1 X106.741 Y126.155 E5.7179
G1 X105.089 Y124.841 E5.79688
G3 X103.421 Y122.270 I10.456 J-8.610 E5.91172
G1 X102.959 Y120.294 E5.98764
G1 X102.958 Y114.785 E6.19376
G1 X103.383 Y112.816 E6.26912
G1 X104.593 Y110.695 E6.36048
G0 F6000 X104.908 Y110.949
G1 F900 X106.152 Y109.816 E6.42343
G1 X107.333 Y108.976 E6.47766
G1 X109.422 Y108.279 E6.56005
G1 X125.347 Y108.279 E7.15587
G1 X127.027 Y108.762 E7.22127
G1 X128.054 Y109.193 E7.26294
G1 X129.621 Y110.439 E7.33784
G3 X131.202 Y112.875 I-9.819 J8.103 E7.44667
G1 X131.641 Y114.754 E7.51886
G1 X131.642 Y120.172 E7.72157
G1 X131.238 Y122.041 E7.79311
G1 X130.092 Y124.051 E7.87968
G1 X128.848 Y125.184 E7.94263
G1 X127.667 Y126.024 E7.99685
G1 X125.578 Y126.721 E8.07925
G1 X109.653 Y126.721 E8.67506
G1 X107.973 Y126.238 E8.74046
G1 X106.946 Y125.807 E8.78214
G1 X105.379 Y124.561 E8.85704
G3 X103.798 Y122.125 I9.819 J-8.103 E8.96587
G1 X103.359 Y120.246 E9.03806
G1 X103.358 Y114.828 E9.24077
G1 X103.762 Y112.959 E9.31231
G1 X104.908 Y110.949 E9.39888
G0 F6000 X105.223 Y111.203
G1 F900 X106.384 Y110.142 E9.45772
G1 X107.517 Y109.336 E9.50974
G1 X109.486 Y108.679 E9.5874
G1 X125.289 Y108.679 E10.17865
G1 X126.872 Y109.131 E10.24025
G1 X127.849 Y109.541 E10.27989
G1 X129.329 Y110.718 E10.35064
G3 X130.826 Y113.023 I-9.094 J7.545 E10.45364
G1 X131.241 Y114.798 E10.52184
G1 X131.242 Y120.13 E10.72133
G1 X130.86 Y121.898 E10.78901
G1 X129.777 Y123.797 E10.8708
G1 X128.616 Y124.858 E10.92964
G1 X127.483 Y125.664 E10.98166
G1 X125.514 Y126.321 E11.05932
G1 X109.711 Y126.321 E11.65057
G1 X108.128 Y125.869 E11.71217
G1 X107.151 Y125.459 E11.75181
G1 X105.671 Y124.282 E11.82256
G3 X104.174 Y121.977 I9.094 J-7.545 E11.92556
G1 X103.759 Y120.202 E11.99376
G1 X103.758 Y114.87 E12.19325
G1 X104.14 Y113.102 E12.26093
G1 X105.223 Y111.203 E12.34272
G0 F6000 X105.54 Y111.455
G3 X107.701 Y109.696 I8.144 J7.799 E12.44717 F900
G1 X109.55 Y109.079 E12.5201
G1 X125.233 Y109.079 E13.10686
G1 X126.717 Y109.5 E13.16457
G1 X127.644 Y109.889 E13.20218
G1 X129.038 Y110.998 E13.26883
G3 X130.449 Y113.168 I-8.408 J7.011 E13.36584
G1 X130.841 Y114.846 E13.43031
G1 X130.842 Y120.087 E13.6264
G1 X130.482 Y121.752 E13.69013
G1 X129.46 Y123.545 E13.76735
G3 X127.299 Y125.304 I-8.144 J-7.799 E13.87180
G1 X125.45 Y125.921 E13.94472
G1 X109.767 Y125.921 E14.53149
G1 X108.283 Y125.5 E14.5892
G1 X107.356 Y125.111 E14.62681
G1 X105.962 Y124.002 E14.69346
G3 X104.551 Y121.832 I8.408 J-7.011 E14.79047
G1 X104.159 Y120.154 E14.85494
G1 X104.158 Y114.913 E15.05103
G1 X104.518 Y113.248 E15.11476
G1 X105.54 Y111.455 E15.19197
G0 F6000 X105.858 Y111.706
G3 X107.885 Y110.056 I7.532 J7.183 E15.28996 F900
G1 X109.614 Y109.479 E15.35815
G1 X125.178 Y109.479 E15.94046
G1 X126.562 Y109.869 E15.99426
G1 X127.439 Y110.237 E16.02984
G1 X128.748 Y111.278 E16.09241
G3 X130.073 Y113.316 I-7.745 J6.485 E16.18353
G1 X130.441 Y114.89 E16.24401
G1 X130.442 Y120.044 E16.43684
G1 X130.104 Y121.606 E16.49663
G1 X129.142 Y123.294 E16.56932
G3 X127.115 Y124.944 I-7.532 J-7.183 E16.66730
G1 X125.386 Y125.521 E16.7355
G1 X109.822 Y125.521 E17.31781
G1 X108.438 Y125.131 E17.3716
G1 X107.561 Y124.763 E17.40719
G1 X106.252 Y123.722 E17.46976
G3 X104.927 Y121.684 I7.745 J-6.485 E17.56087
G1 X104.559 Y120.11 E17.62135
G1 X104.558 Y114.956 E17.81418
G1 X104.896 Y113.394 E17.87397
G1 X105.858 Y111.706 E17.94666
G0 F6000 X106.176 Y111.957
G3 X108.068 Y110.416 I6.912 J6.555 E18.03815 F900
G1 X109.678 Y109.879 E18.10165
G1 X125.123 Y109.879 E18.6795
G3 X127.234 Y110.585 I-1.762 J8.777 E18.76294
G1 X128.456 Y111.557 E18.82136
G3 X129.696 Y113.462 I-7.076 J5.962 E18.90656
G1 X130.041 Y114.938 E18.96327
G1 X130.042 Y120.001 E19.1527
G1 X129.726 Y121.46 E19.20855
G1 X128.824 Y123.043 E19.27672
G3 X126.932 Y124.584 I-6.912 J-6.555 E19.36820
G1 X125.322 Y125.121 E19.4317
G1 X109.877 Y125.121 E20.00956
G3 X107.766 Y124.415 I1.762 J-8.777 E20.09299
G1 X106.544 Y123.443 E20.15141
G3 X105.304 Y121.538 I7.076 J-5.962 E20.23662
G1 X104.959 Y120.062 E20.29333
G1 X104.958 Y114.999 E20.48275
G1 X105.274 Y113.54 E20.53861
G1 X106.176 Y111.957 E20.60677
G0 F6000 X106.494 Y112.208
G3 X108.253 Y110.776 I6.298 J5.940 E20.69182 F900
G1 X109.742 Y110.279 E20.75055
G1 X125.07 Y110.279 E21.32403
G3 X127.029 Y110.933 I-1.590 J8.024 E21.40145
G1 X128.166 Y111.837 E21.45579
G3 X129.320 Y113.609 I-6.422 J5.444 E21.53507
G1 X129.641 Y114.982 E21.58782
G1 X129.642 Y119.958 E21.77399
G1 X129.348 Y121.314 E21.8259
G1 X128.506 Y122.792 E21.88955
G3 X126.747 Y124.224 I-6.298 J-5.940 E21.97459
G1 X125.258 Y124.721 E22.03332
G1 X109.93 Y124.721 E22.6068
G3 X107.971 Y124.067 I1.590 J-8.024 E22.68422
G1 X106.834 Y123.163 E22.73857
G3 X105.680 Y121.391 I6.422 J-5.444 E22.81784
G1 X105.359 Y120.018 E22.87059
G1 X105.358 Y115.042 E23.05677
G1 X105.652 Y113.686 E23.10868
G1 X106.494 Y112.208 E23.17232
G0 F6000 X106.811 Y112.46
G3 X108.438 Y111.136 I5.688 J5.328 E23.25098 F900
G1 X109.806 Y110.679 E23.30494
G1 X125.014 Y110.679 E23.87393
G3 X126.824 Y111.281 I-1.405 J7.246 E23.94544
G1 X127.874 Y112.116 E23.99563
G3 X128.943 Y113.754 I-5.773 J4.936 E24.06897
G1 X129.241 Y115.03 E24.11799
G1 X129.242 Y119.915 E24.30076
G1 X128.97 Y121.168 E24.34873
G1 X128.189 Y122.54 E24.40779
G3 X126.562 Y123.864 I-5.688 J-5.328 E24.48645
G1 X125.194 Y124.321 E24.54042
G1 X109.986 Y124.321 E25.10941
G3 X108.176 Y123.719 I1.405 J-7.246 E25.18092
G1 X107.126 Y122.884 E25.23111
G3 X106.057 Y121.246 I5.773 J-4.936 E25.30444
G1 X105.759 Y119.97 E25.35347
G1 X105.758 Y115.085 E25.53623
G1 X106.03 Y113.832 E25.5842
G1 X106.811 Y112.46 E25.64327
G0 F6000 X107.129 Y112.711
G3 X108.621 Y111.496 I5.124 J4.769 E25.71543 F900
G1 X109.87 Y111.079 E25.7647
G1 X124.96 Y111.079 E26.32927
G3 X126.619 Y111.629 I-1.231 J6.490 E26.39480
G1 X127.582 Y112.395 E26.44084
G3 X128.565 Y113.897 I-5.119 J4.423 E26.50815
G1 X128.841 Y115.078 E26.55352
G1 X128.842 Y119.871 E26.73285
G1 X128.592 Y121.022 E26.77691
G1 X127.871 Y122.289 E26.83146
G3 X126.379 Y123.504 I-5.124 J-4.769 E26.90362
G1 X125.13 Y123.921 E26.95288
G1 X110.04 Y123.921 E27.51746
G3 X108.381 Y123.371 I1.231 J-6.490 E27.58299
G1 X107.418 Y122.605 E27.62903
G3 X106.435 Y121.103 I5.119 J-4.423 E27.69633
G1 X106.159 Y119.922 E27.74171
G1 X106.158 Y115.129 E27.92103
G1 X106.408 Y113.978 E27.9651
G1 X107.129 Y112.711 E28.01964
G0 F6000 X107.447 Y112.962
G3 X108.804 Y111.856 I4.559 J4.208 E28.08530 F900
G1 X109.934 Y111.479 E28.12987
G1 X124.905 Y111.479 E28.68999
G3 X126.414 Y111.977 I-1.055 J5.731 E28.74958
G1 X127.29 Y112.674 E28.79147
G3 X128.187 Y114.039 I-4.481 J3.922 E28.85272
G1 X128.441 Y115.126 E28.89448
G1 X128.442 Y119.827 E29.07036
G1 X128.214 Y120.876 E29.11053
G1 X127.553 Y122.038 E29.16054
G3 X126.196 Y123.144 I-4.559 J-4.208 E29.22620
G1 X125.066 Y123.521 E29.27077
G1 X110.095 Y123.521 E29.83089
G3 X108.586 Y123.023 I1.055 J-5.731 E29.89048
G1 X107.71 Y122.326 E29.93237
G3 X106.813 Y120.961 I4.481 J-3.922 E29.99362
G1 X106.559 Y119.874 E30.03538
G1 X106.558 Y115.173 E30.21126
G1 X106.786 Y114.124 E30.25143
G1 X107.447 Y112.962 E30.30144
G0 F6000 X107.765 Y113.213
G3 X108.985 Y112.217 I3.997 J3.651 E30.36052 F900
G1 X109.998 Y111.879 E30.40048
G1 X124.851 Y111.879 E30.95618
G3 X126.998 Y112.953 I-0.576 J3.834 E31.04752
G3 X127.810 Y114.183 I-3.836 J3.415 E31.10280
G1 X128.041 Y115.17 E31.14072
G1 X128.042 Y119.783 E31.31331
G1 X127.836 Y120.73 E31.34957
G1 X127.235 Y121.787 E31.39506
G3 X126.015 Y122.783 I-3.997 J-3.651 E31.45414
G1 X125.002 Y123.121 E31.4941
G1 X110.149 Y123.121 E32.04981
G3 X108.002 Y122.047 I0.576 J-3.834 E32.14114
G3 X107.190 Y120.817 I3.836 J-3.415 E32.19642
G1 X106.959 Y119.83 E32.23435
G1 X106.958 Y115.217 E32.40694
G1 X107.164 Y114.27 E32.44319
G1 X107.765 Y113.213 E32.48869
G0 F6000 X108.083 Y113.464
G3 X110.062 Y112.279 I2.768 J2.378 E32.57653 F900
G1 X124.799 Y112.279 E33.12789
G3 X126.706 Y113.232 I-0.489 J3.363 E33.20903
G3 X127.433 Y114.327 I-3.175 J2.897 E33.25834
G1 X127.641 Y115.214 E33.29242
G1 X127.642 Y119.739 E33.46172
G1 X127.458 Y120.584 E33.49407
G1 X126.917 Y121.536 E33.53504
G3 X124.938 Y122.721 I-2.768 J-2.378 E33.62288
G1 X110.201 Y122.721 E34.17425
G3 X108.294 Y121.768 I0.489 J-3.363 E34.25539
G3 X107.567 Y120.673 I3.175 J-2.897 E34.30469
G1 X107.359 Y119.786 E34.33878
G1 X107.358 Y115.261 E34.50807
G1 X107.542 Y114.416 E34.54043
G1 X108.083 Y113.464 E34.5814
G0 F6000 X108.401 Y113.715
G3 X110.126 Y112.679 I2.395 J2.033 E34.65805 F900
G1 X124.747 Y112.679 E35.20508
G3 X126.414 Y113.511 I-0.402 J2.891 E35.27602
G1 X126.909 Y114.18 E35.30715
G1 X127.056 Y114.47 E35.31932
G1 X127.241 Y115.258 E35.3496
G1 X127.242 Y119.695 E35.51561
G1 X127.08 Y120.438 E35.54406
G1 X126.599 Y121.285 E35.5805
G3 X124.874 Y122.321 I-2.395 J-2.033 E35.65715
G1 X110.253 Y122.321 E36.20418
G3 X108.586 Y121.489 I0.402 J-2.891 E36.27512
G1 X108.091 Y120.82 E36.30626
G1 X107.944 Y120.53 E36.31842
G1 X107.759 Y119.742 E36.3487
G1 X107.758 Y115.305 E36.51471
G1 X107.92 Y114.562 E36.54316
G1 X108.401 Y113.715 E36.5796
G0 F6000 X108.718 Y113.966
G3 X110.189 Y113.079 I2.010 J1.669 E36.64506 F900
G1 X124.696 Y113.079 E37.18782
G3 X126.125 Y113.793 I-0.297 J2.382 E37.24868
G3 X126.679 Y114.611 I-2.042 J1.979 E37.28576
G1 X126.841 Y115.302 E37.31231
G1 X126.842 Y119.651 E37.47503
G1 X126.702 Y120.294 E37.49965
G1 X126.282 Y121.034 E37.53148
G3 X124.811 Y121.921 I-2.010 J-1.669 E37.59694
G1 X110.304 Y121.921 E38.1397
G3 X108.875 Y121.207 I0.297 J-2.382 E38.20056
G3 X108.321 Y120.389 I2.042 J-1.979 E38.23764
G1 X108.159 Y119.698 E38.26419
G1 X108.158 Y115.349 E38.42691
G1 X108.298 Y114.706 E38.45153
G1 X108.718 Y113.966 E38.48336
G0 F6000 X109.035 Y114.217
G3 X110.255 Y113.479 I1.556 J1.195 E38.53773 F900
G1 X124.645 Y113.479 E39.07612
G3 X125.836 Y114.074 I-0.176 J1.842 E39.12688
G1 X126.232 Y114.601 E39.15154
G3 X126.441 Y115.346 I-1.706 J0.880 E39.18059
G1 X126.442 Y119.607 E39.34001
G1 X126.324 Y120.15 E39.3608
G1 X125.965 Y120.783 E39.38803
G3 X124.745 Y121.521 I-1.556 J-1.195 E39.44240
G1 X110.355 Y121.521 E39.98078
G3 X109.164 Y120.926 I0.176 J-1.842 E40.03154
G1 X108.768 Y120.399 E40.05621
G3 X108.559 Y119.654 I1.706 J-0.880 E40.08526
G1 X108.558 Y115.393 E40.24468
G1 X108.676 Y114.85 E40.26547
G1 X109.035 Y114.217 E40.29269
G0 F6000 X109.354 Y114.467
G3 X110.321 Y113.879 I1.217 J0.913 E40.33591 F900
G1 X124.597 Y113.879 E40.87003
G3 X125.547 Y114.355 I-0.131 J1.447 E40.91059
G1 X125.912 Y114.841 E40.93333
G1 X126.041 Y115.39 E40.95443
G1 X126.042 Y119.563 E41.11056
G1 X125.946 Y120.005 E41.12748
G3 X125.276 Y120.883 I-1.772 J-0.658 E41.16925
G3 X124.679 Y121.121 I-0.837 J-1.233 E41.19341
G1 X110.403 Y121.121 E41.72753
G3 X109.453 Y120.645 I0.131 J-1.447 E41.76809
G1 X109.088 Y120.159 E41.79083
G1 X108.959 Y119.61 E41.81193
G1 X108.958 Y115.437 E41.96806
G1 X109.054 Y114.995 E41.98498
G1 X109.354 Y114.467 E42.0077
G0 F6000 X109.671 Y114.718
G1 F900 X109.999 Y114.408 E42.02459
G1 X110.387 Y114.279 E42.03989
G1 X124.549 Y114.279 E42.56974
G1 X124.922 Y114.369 E42.5841
G3 X125.641 Y115.435 I-0.743 J1.277 E42.63401
G1 X125.642 Y119.52 E42.78685
G3 X125.001 Y120.592 I-1.508 J-0.174 E42.83490
G1 X124.613 Y120.721 E42.8502
G1 X110.451 Y120.721 E43.38005
G1 X110.078 Y120.631 E43.39441
G3 X109.359 Y119.565 I0.743 J-1.277 E43.44432
G1 X109.358 Y115.48 E43.59716
G3 X109.671 Y114.718 I1.377 J0.120 E43.62833
G0 F6000 X110.337 Y115.164
G1 F900 X110.45 Y115.079 E43.63362
G1 X124.5 Y115.079 E44.15928
G1 X124.619 Y115.118 E44.16397
G3 X124.841 Y115.479 I-0.410 J0.501 E44.18000
G1 X124.842 Y119.52 E44.33119
G1 X124.663 Y119.836 E44.34478
G1 X124.55 Y119.921 E44.35007
G1 X110.5 Y119.921 E44.87573
G1 X110.381 Y119.882 E44.88042
G3 X110.159 Y119.521 I0.410 J-0.501 E44.89645
G1 X110.158 Y115.48 E45.04764
G1 X110.337 Y115.164 E45.06123
G0 F6000 X109.989 Y114.967
G3 X110.450 Y114.679 I0.542 J0.354 E45.08205 F900
G1 X124.5 Y114.679 E45.60771
G3 X125.241 Y115.479 I-0.125 J0.859 E45.65179
G1 X125.242 Y119.52 E45.80298
G3 X124.550 Y120.321 I-0.945 J-0.117 E45.84501
G1 X110.5 Y120.321 E46.37068
G3 X109.759 Y119.521 I0.125 J-0.859 E46.41476
G1 X109.758 Y115.48 E46.56595
G3 X109.989 Y114.967 I1.090 J0.182 E46.58716
G1 F2700 E44.58716
;MESH:InfinityCube4.stl
G0 F6000 X110.772 Y115.693
G0 X124.441 Y115.542
;TYPE:WALL-OUTER
G1 F2700 E46.58716
G1 F900 X124.396 Y115.479 E46.59005
G1 X110.605 Y115.479 E47.10603
G1 X110.558 Y115.545 E47.10906
G1 X110.559 Y119.457 E47.25542
G1 X110.605 Y119.521 E47.25837
G1 X124.395 Y119.521 E47.77431
G1 X124.442 Y119.455 E47.77734
G1 X124.441 Y115.542 E47.92374
G0 F6000 X124.396 Y115.479
G0 X124.073 Y115.479
G0 X123.771 Y116.149
G0 X123.772 Y118.851
G0 X124.042 Y119.121
;TYPE:WALL-INNER
G1 F900 X124.042 Y115.879 E48.04504
G1 X110.958 Y115.879 E48.53456
G1 X110.959 Y119.121 E48.65585
G1 X124.042 Y119.121 E49.14534
G0 F6000 X123.642 Y118.721
G1 F900 X123.642 Y116.279 E49.2367
G1 X111.358 Y116.279 E49.6963
G1 X111.359 Y118.721 E49.78766
G1 X123.642 Y118.721 E50.24721
G0 F6000 X123.242 Y118.321
G1 F900 X123.242 Y116.679 E50.30865
G1 X111.758 Y116.679 E50.73831
G1 X111.759 Y118.321 E50.79974
G1 X123.242 Y118.321 E51.22936
G0 F6000 X112.119 Y118.221
G0 X112.119 Y117.961
;TYPE:SKIN
G1 F900 X122.882 Y117.961 E51.63205
G1 X122.882 Y117.039 E51.66655
G1 X112.119 Y117.039 E52.06923
G1 X112.119 Y117.961 E52.10373
G0 F6000 X112.318 Y117.41
G1 F900 X112.669 Y117.76 E52.12227
G0 F6000 X112.713 Y117.239
