;FLAVOR:Marlin
;TIME:677
;Filament used: 0.302967m
;Layer height: 0.2
;MINX:99.517
;MINY:102.701
;MINZ:0.2
;MAXX:135.483
;MAXY:132.3
;MAXZ:10
;ARCWELDERPROCESSED
; Postprocessed by [ArcWelder](https://github.com/FormerLurker/ArcWelderLib)
; Copyright(C) 2021 - Brad Hochgesang
; Version: 1.2.0, Branch: HEAD, BuildDate: 2021-11-21T20:25:43Z
; resolution=0.05mm
; path_tolerance=5.0%
; max_radius=9999.00mm
; default_xyz_precision=3
; default_e_precision=5
; extrusion_rate_variance_percent=5.0%

;Generated with Cura_SteamEngine 5.4.0
M140 S85
M105
M190 S85
M104 S260
M105
M109 S260
M82 ;absolute extrusion mode
M201 X500.00 Y500.00 Z100.00 E5000.00 ;Setup machine max acceleration
M203 X500.00 Y500.00 Z10.00 E50.00 ;Setup machine max feedrate
M204 P500.00 R1000.00 T500.00 ;Setup Print/Retract/Travel acceleration
M205 X8.00 Y8.00 Z0.40 E5.00 ;Setup Jerk
M220 S100 ;Reset Feedrate
M221 S100 ;Reset Flowrate

G28 ;Home

G92 E0 ;Reset Extruder
G1 Z2.0 F3000 ;Move Z Axis up
G1 X1.1 Y20 Z0.28 F5000.0 ;Move to start position
G1 X1.1 Y200.0 Z0.28 F1000.0 E15 ;Draw the first line
G1 X1.4 Y200.0 Z0.28 F5000.0 ;Move to side a little
G1 X1.4 Y20 Z0.28 F1000.0 E30 ;Draw the second line
G92 E0 ;Reset Extruder
G1 Z2.0 F3000 ;Move Z Axis up
G92 E0
G92 E0
G1 F2700 E-2
;LAYER_COUNT:50
;LAYER:0
M107
G0 F6000 X103.778 Y107.107 Z0.2
;TYPE:SKIRT
G1 F2700 E0
G3 X115.026 Y102.701 I10.656 J10.643 E0.46502 F900
G3 X121.123 Y102.720 I2.516 J170.754 E0.69314
G3 X133.267 Y125.291 I-0.419 J14.778 E1.85305
G3 X120.130 Y132.296 I-12.650 J-7.903 E2.43626
G3 X114.021 Y132.288 I-2.766 J-220.663 E2.66482
G3 X103.778 Y107.107 I0.286 J-14.790 E3.95420
G0 F6000 X104.051 Y107.399
G1 F900 X104.808 Y106.691 E3.99298
G3 X115.026 Y103.101 I9.626 J11.062 E4.40798
G3 X121.096 Y103.119 I2.507 J177.968 E4.63508
G3 X132.932 Y125.073 I-0.394 J14.380 E5.76386
G3 X120.130 Y131.896 I-12.316 J-7.687 E6.33220
G3 X114.041 Y131.888 I-2.760 J-216.533 E6.56002
G3 X104.051 Y107.399 I0.266 J-14.391 E7.81439
G0 F6000 X104.325 Y107.691
G1 F900 X105.058 Y107.004 E7.85197
G3 X115.026 Y103.501 I9.376 J10.745 E8.25689
G3 X121.069 Y103.518 I2.497 J186.371 E8.48298
G3 X132.596 Y124.855 I-0.367 J13.980 E9.58066
G3 X120.130 Y131.496 I-11.981 J-7.469 E10.13411
G3 X114.061 Y131.488 I-2.755 J-212.419 E10.36118
G3 X104.325 Y107.691 I0.246 J-13.991 E11.58057
G0 F6000 X104.62 Y107.961
G1 F900 X105.308 Y107.317 E11.61583
G3 X115.026 Y103.901 I9.125 J10.428 E12.01066
G3 X121.042 Y103.917 I2.487 J195.990 E12.23575
G3 X132.260 Y124.638 I-0.340 J13.581 E13.30236
G3 X120.130 Y131.096 I-11.644 J-7.250 E13.84089
G3 X114.081 Y131.088 I-2.749 J-208.322 E14.06721
G3 X104.620 Y107.961 I0.225 J-13.591 E15.25277
G0 F6000 X104.915 Y108.231
G1 F900 X105.558 Y107.629 E15.28573
G3 X115.026 Y104.301 I8.875 J10.116 E15.67045
G3 X121.016 Y104.316 I2.475 J207.813 E15.89456
G3 X124.488 Y130.130 I-0.323 J13.184 E17.28861
G3 X120.130 Y130.696 I-3.998 J-13.723 E17.45370
G3 X114.101 Y130.689 I-2.757 J-221.753 E17.67927
G3 X104.915 Y108.231 I0.206 J-13.192 E18.83099
G1 F2700 E16.83099
;MESH:InfinityCubeHinge.stl
G0 F6000 X112.431 Y115.721
G0 X112.962 Y118.054
G0 X113.277 Y118.525
G0 X113.657 Y118.777
G0 X115.238 Y119.145
G0 X114.969 Y118.502
;TYPE:WALL-OUTER
G1 F2700 E18.83099
G3 X115.479 Y117.739 I-0.665 J-0.996 E19.07701 F900
G3 X114.969 Y118.502 I-1.189 J-0.243 E19.11201
G0 F6000 X114.598 Y118.653
G1 F2700 E17.11201
G0 F6000 X114.869 Y119.301
G0 X119.85 Y119.193
G0 X120.238 Y118.61
G1 F2700 E19.11201
G3 X120.959 Y118.673 I0.460 J-1.110 E19.36571 F900
G3 X120.238 Y118.610 I-0.254 J-1.248 E19.39306
G0 F6000 X119.905 Y118.39
G1 F2700 E17.39306
G0 F6000 X119.518 Y118.972
G0 X119.786 Y119.108
G0 X121.146 Y119.557
G0 X121.292 Y120.243
G1 F2700 E19.39306
G2 X120.837 Y114.705 I-0.587 J-2.739 E19.69450 F900
G1 X114.135 Y114.701 E19.94525
G2 X114.247 Y120.299 I0.166 J2.797 E20.26594
G1 X120.834 Y120.296 E20.51239
G1 X121.292 Y120.243 E20.52963
G0 F6000 X121.672 Y120.12
G0 X121.206 Y119.85
;TYPE:WALL-INNER
G2 X120.813 Y115.105 I-0.502 J-2.347 E20.78806 F900
G1 X114.165 Y115.101 E21.03679
G2 X114.307 Y119.900 I0.137 J2.398 E21.31374
G1 X120.811 Y119.896 E21.55708
G1 X121.206 Y119.85 E21.57195
G0 F6000 X121.146 Y119.557
G0 X119.992 Y119.214
G0 X119.389 Y118.814
G0 X118.144 Y117.361
G0 X118.563 Y116.085
G0 X114.493 Y115.51
G1 F861.2 X114.195 Y115.51 E21.58361
G1 F884.5 X113.878 Y115.546 E21.59575
G1 F904.5 X113.42 Y115.693 E21.61366
G2 X112.768 Y116.210 I0.984 J1.911 E21.64516 F893
G1 F895.5 X112.542 Y116.559 E21.66079
G1 F893.3 X112.392 Y116.881 E21.67418
G1 F891.1 X112.316 Y117.305 E21.69046
G1 F888.9 X112.298 Y117.646 E21.7034
G1 F886.7 X112.391 Y118.079 E21.72021
G1 F888.9 X112.521 Y118.426 E21.73425
G2 X113.012 Y119.037 I2.374 J-1.405 E21.76387 F893
G1 F891.1 X113.377 Y119.268 E21.78019
G1 F880.2 X113.675 Y119.399 E21.79265
G1 X114.152 Y119.5 E21.8113
G1 F871.7 X114.597 Y119.488 E21.8285
G0 F6000 X120.504 Y119.488
G1 F884.5 X120.117 Y119.402 E21.84359
G3 X119.756 Y115.746 I0.583 J-1.903 E22.01865 F900
G1 F895.5 X120.014 Y115.621 E22.02943
G1 F861.2 X120.328 Y115.517 E22.04236
G1 X119.997 Y115.506 E22.05531
G1 F895.5 X114.894 Y115.502 E22.24718
G1 F880.2 X114.493 Y115.51 E22.26253
G1 X114.876 Y115.594 E22.27753
G1 F900 X115.236 Y115.743 E22.29211
G3 X116.275 Y117.091 I-1.025 J1.864 E22.35745
G1 X116.275 Y117.907 E22.38798
G3 X115.242 Y119.255 I-2.064 J-0.512 E22.45318
G1 F895.5 X114.885 Y119.406 E22.46776
G1 F873.8 X114.597 Y119.488 E22.4793
G1 X114.903 Y119.498 E22.4911
G1 F895.5 X120.108 Y119.497 E22.68681
G1 F884.5 X120.504 Y119.488 E22.70189
G0 F6000 X118.939 Y119.096
G3 X118.939 Y115.904 I1.680 J-1.596 E22.83348 F900
G1 X116.085 Y115.901 E22.94026
G3 X116.088 Y119.098 I-1.783 J1.600 E23.07092
G1 X118.939 Y119.096 E23.17759
G0 F6000 X120.504 Y119.488
G1 F886.7 X120.707 Y119.5 E23.18531
G1 F900 X121.121 Y119.457 E23.20088
G2 X121.682 Y119.238 I-0.952 J-3.266 E23.22389 F882
G1 F900 X121.908 Y119.091 E23.23397
G1 F886.7 X122.095 Y118.918 E23.24365
G1 F878 X122.319 Y118.674 E23.25635
G1 F882.4 X122.479 Y118.395 E23.26863
G1 F888.9 X122.636 Y118.02 E23.28403
G1 F886.7 X122.687 Y117.623 E23.29923
G1 F873.8 X122.687 Y117.306 E23.31144
G1 F884.5 X122.626 Y116.977 E23.32418
G1 F880.2 X122.535 Y116.735 E23.33407
G1 F884.5 X122.428 Y116.499 E23.34393
G1 F891.1 X122.24 Y116.23 E23.35634
G1 F888.9 X121.921 Y115.914 E23.37335
G1 F897.8 X121.671 Y115.751 E23.38454
G1 F902.3 X121.197 Y115.557 E23.40365
G1 F891.1 X120.79 Y115.511 E23.41913
G1 F853.1 X120.328 Y115.517 E23.43737
G0 F6000 X119.388 Y116.188
G0 X118.985 Y116.79
G0 X118.843 Y117.5
G0 X118.985 Y118.211
G0 X119.389 Y118.814
G0 X119.876 Y119.138
G0 X120.606 Y119.398
G0 X120.664 Y119.106
G1 F900 X120.197 Y119.01 E23.45521
G3 X119.657 Y116.294 I0.501 J-1.511 E23.58071
G3 X120.428 Y115.919 I0.982 J1.039 E23.61308 F902
G1 F900 X121.013 Y115.922 E23.63497
G1 X121.588 Y116.16 E23.65825
G1 X122.035 Y116.595 E23.68158
G1 X122.282 Y117.188 E23.70562
G1 X122.277 Y117.832 E23.72971
G1 X122.032 Y118.404 E23.75299
G1 X121.595 Y118.841 E23.77612
G3 X120.664 Y119.106 I-0.943 J-1.544 E23.81266
G0 F6000 X120.606 Y119.398
G0 X114.76 Y119.346
G0 X114.646 Y119.071
G1 F900 X114.255 Y119.1 E23.82733
G3 X112.693 Y117.515 I0.070 J-1.631 E23.91898
G1 X112.807 Y116.885 E23.94294
G1 X113.165 Y116.356 E23.96684
G3 X113.985 Y115.925 I1.174 J1.238 E24.00181
G3 X115.281 Y118.756 I0.299 J1.575 E24.16130
G3 X114.646 Y119.071 I-1.109 J-1.438 E24.18793
G0 F6000 X114.76 Y119.346
G0 X116.522 Y118.622
G0 X116.754 Y118.737
;TYPE:SKIN
G1 F900 X118.256 Y118.736 E24.24413
G3 X118.256 Y116.263 I2.278 J-1.237 E24.34037
G1 X116.754 Y116.263 E24.39657
G3 X117.043 Y117.048 I-4.619 J2.146 E24.42789
G1 X117.032 Y117.992 E24.46321
G3 X116.754 Y118.737 I-4.831 J-1.378 E24.49299
G0 F6000 X117.147 Y118.279
G1 F900 X117.404 Y118.535 E24.50656
G0 F6000 X117.947 Y118.513
G1 F900 X117.233 Y117.799 E24.54434
G0 F6000 X117.758 Y117.758
G1 F900 X117.24 Y117.24 E24.57175
G0 F6000 X117.766 Y117.2
G1 F900 X117.08 Y116.514 E24.60804
G0 F6000 X117.594 Y116.463
G1 F900 X117.857 Y116.725 E24.62193
G0 F6000 X118.591 Y116.919
;MESH:NONMESH
G0 F300 X118.591 Y116.919 Z0.4
G0 F6000 X118.563 Y118.915
G0 X114.375 Y119.397
G0 X114.309 Y118.705
;TIME_ELAPSED:52.618211
;LAYER:1
M106 S34
;TYPE:WALL-OUTER
;MESH:InfinityCubeHinge.stl
G3 X114.762 Y118.612 I-0.010 J-1.199 E24.88572 F985
G1 X114.309 Y118.705 E24.90303
G0 F7500 X113.916 Y118.629
G1 F2700 E22.90303
G0 F7500 X113.781 Y119.314
G0 X120.57 Y119.39
G0 X120.705 Y118.704
G1 F2700 E24.90303
G3 X121.557 Y118.341 I-0.008 J-1.200 E25.14889 F985
G3 X120.705 Y118.704 I-0.853 J-0.820 E25.18425
G0 F7500 X120.312 Y118.629
G1 F2700 E23.18425
G0 F7500 X120.177 Y119.313
G0 X121.137 Y119.559
G0 X121.285 Y120.245
G1 F2700 E25.18425
G2 X120.841 Y114.705 I-0.580 J-2.741 E25.48596 F985
G1 X114.136 Y114.7 E25.73682
G2 X114.126 Y120.299 I0.160 J2.800 E26.05313
G1 X120.832 Y120.296 E26.30403
G1 X121.285 Y120.245 E26.32108
G0 F7500 X121.666 Y120.122
G0 X121.201 Y119.852
;TYPE:WALL-INNER
G2 X120.818 Y115.105 I-0.497 J-2.349 E26.57966 F985
G1 X114.166 Y115.1 E26.82853
G2 X114.156 Y119.899 I0.131 J2.400 E27.09998
G1 X120.81 Y119.896 E27.34893
G1 X121.201 Y119.852 E27.36365
G0 F7500 X121.137 Y119.559
G0 X119.99 Y119.214
G0 X119.387 Y118.812
G0 X118.144 Y117.361
G0 X118.562 Y116.086
G0 X114.481 Y115.509
G1 F958.9 X114.195 Y115.502 E27.37465
G1 F961.3 X113.886 Y115.554 E27.38666
G1 F968.4 X113.641 Y115.615 E27.39628
G1 F982.8 X113.384 Y115.727 E27.40679
G1 F978 X113.013 Y115.962 E27.42335
G2 X112.522 Y116.574 I1.835 J1.975 E27.45300
G1 F975.6 X112.394 Y116.908 E27.46652
G1 F958.9 X112.334 Y117.187 E27.47749
G1 F961.3 X112.298 Y117.502 E27.48965
G1 F952 X112.346 Y117.89 E27.50478
G1 X112.452 Y118.272 E27.52014
G1 F961.3 X112.616 Y118.561 E27.53288
G1 F958.9 X112.765 Y118.775 E27.5429
G1 F980.4 X112.946 Y118.97 E27.55291
G1 F968.4 X113.151 Y119.125 E27.56269
G1 F963.6 X113.373 Y119.267 E27.57277
G1 F978 X113.69 Y119.411 E27.5859
G1 F970.7 X114.155 Y119.493 E27.60383
G1 F952 X114.508 Y119.49 E27.6175
G0 F7500 X120.517 Y119.489
G1 F968.4 X120.127 Y119.408 E27.63266
G1 F985.3 X119.756 Y119.255 E27.64768
G3 X120.118 Y115.595 I0.944 J-1.754 E27.82285
G1 F966 X120.49 Y115.512 E27.8374
G1 X120.109 Y115.504 E27.85194
G1 F985.3 X114.879 Y115.501 E28.04761
G1 F963.6 X114.481 Y115.509 E28.06284
G1 X114.871 Y115.592 E28.0781
G1 F985.3 X115.24 Y115.744 E28.09303
G3 X116.274 Y117.089 I-1.002 J1.840 E28.15833
G1 X116.281 Y117.834 E28.1862
G3 X114.881 Y119.404 I-2.023 J-0.394 E28.26868
G1 F961.3 X114.508 Y119.49 E28.28336
G1 X114.89 Y119.499 E28.29801
G1 F968.4 X120.517 Y119.489 E28.51223
G0 F7500 X116.057 Y119.098
G1 F985.3 X118.939 Y119.097 E28.62005
G3 X118.939 Y115.904 I1.681 J-1.597 E28.75166
G1 X116.086 Y115.902 E28.85841
G3 X116.057 Y119.098 I-1.741 J1.582 E28.98990
G0 F7500 X120.517 Y119.489
G1 F970.7 X120.819 Y119.494 E29.00137
G1 F963.6 X121.115 Y119.449 E29.01282
G1 F947.4 X121.461 Y119.355 E29.02677
G2 X122.097 Y118.942 I-1.804 J-3.475 E29.05617 F952
G1 F947.4 X122.313 Y118.67 E29.06969
G1 F954.3 X122.548 Y118.293 E29.08685
G1 F985.3 X122.657 Y117.904 E29.10196
G1 F978 X122.687 Y117.623 E29.11261
G1 F956.6 X122.687 Y117.306 E29.12483
G1 F968.4 X122.626 Y116.977 E29.13757
G1 F963.6 X122.535 Y116.735 E29.14746
G1 F968.4 X122.428 Y116.499 E29.15732
G1 F978 X122.24 Y116.226 E29.16982
G1 F975.6 X122.003 Y115.989 E29.18248
G1 F963.6 X121.737 Y115.799 E29.19499
G1 F958.9 X121.454 Y115.641 E29.20745
G1 F954.3 X121.126 Y115.554 E29.22056
G1 F963.6 X120.807 Y115.505 E29.2329
G1 F970.7 X120.49 Y115.512 E29.24494
G0 F7500 X119.387 Y116.188
G0 X118.985 Y116.79
G0 X118.843 Y117.5
G0 X118.985 Y118.21
G0 X119.387 Y118.812
G0 X119.874 Y119.136
G0 X120.646 Y119.405
G0 X120.704 Y119.111
G1 F985.3 X120.202 Y119.015 E29.26407
G3 X120.197 Y115.988 I0.499 J-1.514 E29.41321
G1 X120.69 Y115.887 E29.43203
G1 X121.327 Y116.013 E29.45633
G3 X122.052 Y116.633 I-0.718 J1.573 E29.49236
G1 X122.282 Y117.188 E29.51483
G3 X122.170 Y118.144 I-1.727 J0.282 E29.55118
G1 X121.832 Y118.646 E29.57382
G1 X121.319 Y118.986 E29.59685
G1 X120.704 Y119.111 E29.62033
G0 F7500 X120.646 Y119.405
G0 X114.368 Y119.406
G0 X114.31 Y119.113
G1 F985.3 X113.672 Y118.986 E29.64467
G1 X113.149 Y118.628 E29.66838
G1 X112.806 Y118.108 E29.69169
G1 X112.691 Y117.501 E29.7148
G1 X112.808 Y116.883 E29.73833
G1 X113.154 Y116.367 E29.76158
G1 X113.676 Y116.013 E29.78518
G1 X114.287 Y115.888 E29.80851
G3 X115.778 Y118.133 I-0.033 J1.640 E29.92698
G3 X114.310 Y119.113 I-1.549 J-0.730 E29.99614
G0 F7500 X114.368 Y119.406
G0 X116.748 Y118.998
G0 X116.748 Y118.738
;TYPE:SKIN
G1 F985.3 X118.256 Y118.735 E30.05256
G3 X118.255 Y116.264 I2.277 J-1.236 E30.14873
G1 X116.757 Y116.264 E30.20477
G3 X117.045 Y117.049 I-4.892 J2.240 E30.23608
G1 X117.032 Y117.978 E30.27084
G3 X116.748 Y118.738 I-2.655 J-0.559 E30.30128
G0 F7500 X116.748 Y118.998
G0 X118.562 Y118.914
G0 X118.268 Y117.99
G0 X117.813 Y118.076
G1 F985.3 X117.354 Y118.536 E30.32559
G0 F7500 X117.195 Y118.129
G1 F985.3 X117.75 Y117.574 E30.35496
G0 F7500 X117.238 Y117.521
G1 F985.3 X117.815 Y116.944 E30.38549
G0 F7500 X117.73 Y116.463
G1 F985.3 X117.228 Y116.965 E30.41205
G0 F7500 X117.089 Y116.538
G1 F985.3 X117.164 Y116.463 E30.41602
G0 F7500 X117.165 Y115.704
;MESH:NONMESH
G0 F300 X117.165 Y115.704 Z0.6
G0 F7500 X116.439 Y116.084
G0 X116.119 Y117.819
G0 X115.99 Y118.246
G0 X115.611 Y118.812
G0 X115.071 Y119.172
G0 X114.167 Y119.39
G0 X114.302 Y118.703
;TIME_ELAPSED:65.951178
;LAYER:2
M106 S68
;TYPE:WALL-OUTER
;MESH:InfinityCubeHinge.stl
G3 X114.754 Y118.615 I0.000 J-1.202 E30.67989 F971
G1 X114.302 Y118.703 E30.69711
G0 F9000 X113.909 Y118.626
G1 F2700 E28.69711
G0 F9000 X113.772 Y119.313
G0 X113.909 Y119.568
G0 X113.78 Y120.258
G1 F2700 E30.69711
G1 F971 X114.242 Y120.299 E30.71447
G1 X120.829 Y120.296 E30.96091
G2 X120.844 Y114.706 I-0.128 J-2.795 E31.27952
G1 X114.132 Y114.701 E31.53064
G2 X113.780 Y120.258 I0.173 J2.801 E31.83371
G0 F9000 X114.179 Y120.293
G1 F2700 E29.83371
G0 F9000 X114.24 Y119.597
G0 X120.562 Y119.39
G0 X120.698 Y118.704
G1 F2700 E31.83371
G3 X121.365 Y118.500 I-0.002 J-1.200 E32.08824 F971
G3 X120.698 Y118.704 I-0.690 J-1.063 E32.11458
G0 F9000 X120.306 Y118.626
G0 X120.698 Y119.111
;TYPE:WALL-INNER
G3 X119.493 Y116.458 I0.028 J-1.613 E32.25086 F971
G3 X121.013 Y115.923 I1.228 J1.063 E32.31388
G1 X121.586 Y116.158 E32.33705
G1 X122.04 Y116.602 E32.36081
G1 X122.278 Y117.197 E32.38479
G1 X122.277 Y117.814 E32.40787
G1 X122.038 Y118.394 E32.43134
G1 X121.613 Y118.82 E32.45386
G1 X121.293 Y118.995 E32.4675
G1 X120.698 Y119.111 E32.49018
G0 F9000 X120.639 Y119.406
G0 X119.989 Y119.214
G0 X119.387 Y118.812
G0 X118.155 Y117.094
G0 X118.536 Y116.082
G0 X114.493 Y115.51
G1 F929.2 X114.192 Y115.51 E32.50195
G1 F954.3 X113.889 Y115.544 E32.51356
G1 F978.3 X113.615 Y115.623 E32.52415
G1 F968.6 X113.385 Y115.726 E32.5336
G1 F963.8 X113.029 Y115.952 E32.5495
G1 F949.6 X112.729 Y116.269 E32.56619
G1 F947.3 X112.542 Y116.559 E32.57943
G1 F971 X112.432 Y116.789 E32.58896
G1 F978.3 X112.354 Y117.041 E32.59876
G1 F968.6 X112.315 Y117.304 E32.60873
G1 F966.2 X112.306 Y117.716 E32.62423
G1 F968.6 X112.392 Y118.092 E32.63869
G1 F966.2 X112.52 Y118.423 E32.65204
G1 F961.4 X112.76 Y118.767 E32.66789
G1 F963.8 X112.944 Y118.969 E32.67819
G1 F954.3 X113.148 Y119.123 E32.68792
G1 F949.6 X113.379 Y119.27 E32.69839
G1 F966.2 X113.635 Y119.384 E32.70893
G1 F945 X113.93 Y119.457 E32.72061
G1 F942.7 X114.301 Y119.5 E32.73501
G1 F947.3 X114.493 Y119.49 E32.74238
G0 F9000 X120.503 Y119.488
G1 F952 X120.12 Y119.405 E32.75733
G3 X119.761 Y115.743 I0.578 J-1.905 E32.93295 F971
G1 F963.8 X120.024 Y115.616 E32.94396
G1 F927 X120.33 Y115.517 E32.95656
G1 X120.008 Y115.508 E32.96919
G1 F963.8 X114.896 Y115.501 E33.16188
G1 F949.6 X114.493 Y115.51 E33.1773
G1 X114.878 Y115.595 E33.19239
G1 F971 X115.239 Y115.745 E33.20701
G3 X114.874 Y119.406 I-0.938 J1.755 E33.38287
G1 F949.6 X114.493 Y119.49 E33.3978
G1 X114.883 Y119.499 E33.41272
G1 F971 X120.112 Y119.496 E33.60836
G1 F952 X120.503 Y119.488 E33.62328
G0 F9000 X118.937 Y119.096
